Addons/Fimic/Filmic Resolve - Low Contrast.cube
# Filmic Low Contrast		
LUT_1D_SIZE 4096		
LUT_1D_INPUT_RANGE 0.000000000 1.000000000		
0.0000000000000E+00	0.0000000000000E+00	0.0000000000000E+00
3.8071194186105E-05	3.8071194186105E-05	3.8071194186105E-05
7.6191797945641E-05	7.6191797945641E-05	7.6191797945641E-05
1.1436187302051E-04	1.1436187302051E-04	1.1436187302051E-04
1.5258148122314E-04	1.5258148122314E-04	1.5258148122314E-04
1.9085068443662E-04	1.9085068443662E-04	1.9085068443662E-04
2.2916954461466E-04	2.2916954461466E-04	2.2916954461466E-04
2.6753812378176E-04	2.6753812378176E-04	2.6753812378176E-04
3.0595648403317E-04	3.0595648403317E-04	3.0595648403317E-04
3.4442468753504E-04	3.4442468753504E-04	3.4442468753504E-04
3.8294279652444E-04	3.8294279652444E-04	3.8294279652444E-04
4.2151087330939E-04	4.2151087330939E-04	4.2151087330939E-04
4.6012898026901E-04	4.6012898026901E-04	4.6012898026901E-04
4.9879717985350E-04	4.9879717985350E-04	4.9879717985350E-04
5.3751553458421E-04	5.3751553458421E-04	5.3751553458421E-04
5.7628410705378E-04	5.7628410705378E-04	5.7628410705378E-04
6.1510295992610E-04	6.1510295992610E-04	6.1510295992610E-04
6.5397215593645E-04	6.5397215593645E-04	6.5397215593645E-04
6.9289175789149E-04	6.9289175789149E-04	6.9289175789149E-04
7.3186182866941E-04	7.3186182866941E-04	7.3186182866941E-04
7.7088243121990E-04	7.7088243121990E-04	7.7088243121990E-04
8.0995362856429E-04	8.0995362856429E-04	8.0995362856429E-04
8.4907548379557E-04	8.4907548379557E-04	8.4907548379557E-04
8.8824806007843E-04	8.8824806007843E-04	8.8824806007843E-04
9.2747142064941E-04	9.2747142064941E-04	9.2747142064941E-04
9.6674562881684E-04	9.6674562881684E-04	9.6674562881684E-04
1.0060707479610E-03	1.0060707479610E-03	1.0060707479610E-03
1.0454468415342E-03	1.0454468415342E-03	1.0454468415342E-03
1.0848739730607E-03	1.0848739730607E-03	1.0848739730607E-03
1.1243522061369E-03	1.1243522061369E-03	1.1243522061369E-03
1.1638816044313E-03	1.1638816044313E-03	1.1638816044313E-03
1.2034622316848E-03	1.2034622316848E-03	1.2034622316848E-03
1.2430941517104E-03	1.2430941517104E-03	1.2430941517104E-03
1.2827774283936E-03	1.2827774283936E-03	1.2827774283936E-03
1.3225121256921E-03	1.3225121256921E-03	1.3225121256921E-03
1.3622983076364E-03	1.3622983076364E-03	1.3622983076364E-03
1.4021360383292E-03	1.4021360383292E-03	1.4021360383292E-03
1.4420253819461E-03	1.4420253819461E-03	1.4420253819461E-03
1.4819664027351E-03	1.4819664027351E-03	1.4819664027351E-03
1.5219591650170E-03	1.5219591650170E-03	1.5219591650170E-03
1.5620037331854E-03	1.5620037331854E-03	1.5620037331854E-03
1.6021001717069E-03	1.6021001717069E-03	1.6021001717069E-03
1.6422485451208E-03	1.6422485451208E-03	1.6422485451208E-03
1.6824489180394E-03	1.6824489180394E-03	1.6824489180394E-03
1.7227013551481E-03	1.7227013551481E-03	1.7227013551481E-03
1.7630059212053E-03	1.7630059212053E-03	1.7630059212053E-03
1.8033626810427E-03	1.8033626810427E-03	1.8033626810427E-03
1.8437716995651E-03	1.8437716995651E-03	1.8437716995651E-03
1.8842330417507E-03	1.8842330417507E-03	1.8842330417507E-03
1.9247467726507E-03	1.9247467726507E-03	1.9247467726507E-03
1.9653129573902E-03	1.9653129573902E-03	1.9653129573902E-03
2.0059316611675E-03	2.0059316611675E-03	2.0059316611675E-03
2.0466029492543E-03	2.0466029492543E-03	2.0466029492543E-03
2.0873268869961E-03	2.0873268869961E-03	2.0873268869961E-03
2.1281035398121E-03	2.1281035398121E-03	2.1281035398121E-03
2.1689329731949E-03	2.1689329731949E-03	2.1689329731949E-03
2.2098152527112E-03	2.2098152527112E-03	2.2098152527112E-03
2.2507504440013E-03	2.2507504440013E-03	2.2507504440013E-03
2.2917386127796E-03	2.2917386127796E-03	2.2917386127796E-03
2.3327798248343E-03	2.3327798248343E-03	2.3327798248343E-03
2.3738741460277E-03	2.3738741460277E-03	2.3738741460277E-03
2.4150216422962E-03	2.4150216422962E-03	2.4150216422962E-03
2.4562223796502E-03	2.4562223796502E-03	2.4562223796502E-03
2.4974764241744E-03	2.4974764241744E-03	2.4974764241744E-03
2.5387838420279E-03	2.5387838420279E-03	2.5387838420279E-03
2.5801446994439E-03	2.5801446994439E-03	2.5801446994439E-03
2.6215590627301E-03	2.6215590627301E-03	2.6215590627301E-03
2.6630269982687E-03	2.6630269982687E-03	2.6630269982687E-03
2.7045485725162E-03	2.7045485725162E-03	2.7045485725162E-03
2.7461238520041E-03	2.7461238520041E-03	2.7461238520041E-03
2.7877529033380E-03	2.7877529033380E-03	2.7877529033380E-03
2.8294357931986E-03	2.8294357931986E-03	2.8294357931986E-03
2.8711725883413E-03	2.8711725883413E-03	2.8711725883413E-03
2.9129633555960E-03	2.9129633555960E-03	2.9129633555960E-03
2.9548081618680E-03	2.9548081618680E-03	2.9548081618680E-03
2.9967070741370E-03	2.9967070741370E-03	2.9967070741370E-03
3.0386601594582E-03	3.0386601594582E-03	3.0386601594582E-03
3.0806674849616E-03	3.0806674849616E-03	3.0806674849616E-03
3.1227291178523E-03	3.1227291178523E-03	3.1227291178523E-03
3.1648451254106E-03	3.1648451254106E-03	3.1648451254106E-03
3.2070155749923E-03	3.2070155749923E-03	3.2070155749923E-03
3.2492405340282E-03	3.2492405340282E-03	3.2492405340282E-03
3.2915200700246E-03	3.2915200700246E-03	3.2915200700246E-03
3.3338542505633E-03	3.3338542505633E-03	3.3338542505633E-03
3.3762431433015E-03	3.3762431433015E-03	3.3762431433015E-03
3.4186868159719E-03	3.4186868159719E-03	3.4186868159719E-03
3.4611853363830E-03	3.4611853363830E-03	3.4611853363830E-03
3.5037387724189E-03	3.5037387724189E-03	3.5037387724189E-03
3.5463471920393E-03	3.5463471920393E-03	3.5463471920393E-03
3.5890106632800E-03	3.5890106632800E-03	3.5890106632800E-03
3.6317292542524E-03	3.6317292542524E-03	3.6317292542524E-03
3.6745030331439E-03	3.6745030331439E-03	3.6745030331439E-03
3.7173320682179E-03	3.7173320682179E-03	3.7173320682179E-03
3.7602164278139E-03	3.7602164278139E-03	3.7602164278139E-03
3.8031561803475E-03	3.8031561803475E-03	3.8031561803475E-03
3.8461513943103E-03	3.8461513943103E-03	3.8461513943103E-03
3.8892021382704E-03	3.8892021382704E-03	3.8892021382704E-03
3.9323084808720E-03	3.9323084808720E-03	3.9323084808720E-03
3.9754704908356E-03	3.9754704908356E-03	3.9754704908356E-03
4.0186882369584E-03	4.0186882369584E-03	4.0186882369584E-03
4.0619617881138E-03	4.0619617881138E-03	4.0619617881138E-03
4.1052912132518E-03	4.1052912132518E-03	4.1052912132518E-03
4.1486765813990E-03	4.1486765813990E-03	4.1486765813990E-03
4.1921179616588E-03	4.1921179616588E-03	4.1921179616588E-03
4.2356154232112E-03	4.2356154232112E-03	4.2356154232112E-03
4.2791690353128E-03	4.2791690353128E-03	4.2791690353128E-03
4.3227788672974E-03	4.3227788672974E-03	4.3227788672974E-03
4.3664449885755E-03	4.3664449885755E-03	4.3664449885755E-03
4.4101674686345E-03	4.4101674686345E-03	4.4101674686345E-03
4.4539463770390E-03	4.4539463770390E-03	4.4539463770390E-03
4.4977817834305E-03	4.4977817834305E-03	4.4977817834305E-03
4.5416737575278E-03	4.5416737575278E-03	4.5416737575278E-03
4.5856223691268E-03	4.5856223691268E-03	4.5856223691268E-03
4.6296276881007E-03	4.6296276881007E-03	4.6296276881007E-03
4.6736897844000E-03	4.6736897844000E-03	4.6736897844000E-03
4.7178087280528E-03	4.7178087280528E-03	4.7178087280528E-03
4.7619845891642E-03	4.7619845891642E-03	4.7619845891642E-03
4.8062174379172E-03	4.8062174379172E-03	4.8062174379172E-03
4.8505073445722E-03	4.8505073445722E-03	4.8505073445722E-03
4.8948543794673E-03	4.8948543794673E-03	4.8948543794673E-03
4.9392586130182E-03	4.9392586130182E-03	4.9392586130182E-03
4.9837201157185E-03	4.9837201157185E-03	4.9837201157185E-03
5.0282389581394E-03	5.0282389581394E-03	5.0282389581394E-03
5.0728152109302E-03	5.0728152109302E-03	5.0728152109302E-03
5.1174489448179E-03	5.1174489448179E-03	5.1174489448179E-03
5.1621402306076E-03	5.1621402306076E-03	5.1621402306076E-03
5.2068891391826E-03	5.2068891391826E-03	5.2068891391826E-03
5.2516957415041E-03	5.2516957415041E-03	5.2516957415041E-03
5.2965601086114E-03	5.2965601086114E-03	5.2965601086114E-03
5.3414823116224E-03	5.3414823116224E-03	5.3414823116224E-03
5.3864624217328E-03	5.3864624217328E-03	5.3864624217328E-03
5.4315005102172E-03	5.4315005102172E-03	5.4315005102172E-03
5.4765966484281E-03	5.4765966484281E-03	5.4765966484281E-03
5.5217509077968E-03	5.5217509077968E-03	5.5217509077968E-03
5.5669633598329E-03	5.5669633598329E-03	5.5669633598329E-03
5.6122340761250E-03	5.6122340761250E-03	5.6122340761250E-03
5.6575631283398E-03	5.6575631283398E-03	5.6575631283398E-03
5.7029505882231E-03	5.7029505882231E-03	5.7029505882231E-03
5.7483965275993E-03	5.7483965275993E-03	5.7483965275993E-03
5.7939010183717E-03	5.7939010183717E-03	5.7939010183717E-03
5.8394641325226E-03	5.8394641325226E-03	5.8394641325226E-03
5.8850859421130E-03	5.8850859421130E-03	5.8850859421130E-03
5.9307665192830E-03	5.9307665192830E-03	5.9307665192830E-03
5.9765059362520E-03	5.9765059362520E-03	5.9765059362520E-03
6.0223042653182E-03	6.0223042653182E-03	6.0223042653182E-03
6.0681615788591E-03	6.0681615788591E-03	6.0681615788591E-03
6.1140779493316E-03	6.1140779493316E-03	6.1140779493316E-03
6.1600534492717E-03	6.1600534492717E-03	6.1600534492717E-03
6.2060881512948E-03	6.2060881512948E-03	6.2060881512948E-03
6.2521821280960E-03	6.2521821280960E-03	6.2521821280960E-03
6.2983354524495E-03	6.2983354524495E-03	6.2983354524495E-03
6.3445481972093E-03	6.3445481972093E-03	6.3445481972093E-03
6.3908204353088E-03	6.3908204353088E-03	6.3908204353088E-03
6.4371522397614E-03	6.4371522397614E-03	6.4371522397614E-03
6.4835436836598E-03	6.4835436836598E-03	6.4835436836598E-03
6.5299948401768E-03	6.5299948401768E-03	6.5299948401768E-03
6.5765057825650E-03	6.5765057825650E-03	6.5765057825650E-03
6.6230765841568E-03	6.6230765841568E-03	6.6230765841568E-03
6.6697073183645E-03	6.6697073183645E-03	6.6697073183645E-03
6.7163980586807E-03	6.7163980586807E-03	6.7163980586807E-03
6.7631488786778E-03	6.7631488786778E-03	6.7631488786778E-03
6.8099598520085E-03	6.8099598520085E-03	6.8099598520085E-03
6.8568310524056E-03	6.8568310524056E-03	6.8568310524056E-03
6.9037625536822E-03	6.9037625536822E-03	6.9037625536822E-03
6.9507544297318E-03	6.9507544297318E-03	6.9507544297318E-03
6.9978067545280E-03	6.9978067545280E-03	6.9978067545280E-03
7.0449196021252E-03	7.0449196021252E-03	7.0449196021252E-03
7.0920930466580E-03	7.0920930466580E-03	7.0920930466580E-03
7.1393271623418E-03	7.1393271623418E-03	7.1393271623418E-03
7.1866220234723E-03	7.1866220234723E-03	7.1866220234723E-03
7.2339777044262E-03	7.2339777044262E-03	7.2339777044262E-03
7.2813942796606E-03	7.2813942796606E-03	7.2813942796606E-03
7.3288718237136E-03	7.3288718237136E-03	7.3288718237136E-03
7.3764104112042E-03	7.3764104112042E-03	7.3764104112042E-03
7.4240101168321E-03	7.4240101168321E-03	7.4240101168321E-03
7.4716710153781E-03	7.4716710153781E-03	7.4716710153781E-03
7.5193931817039E-03	7.5193931817039E-03	7.5193931817039E-03
7.5671766907523E-03	7.5671766907523E-03	7.5671766907523E-03
7.6150216175475E-03	7.6150216175475E-03	7.6150216175475E-03
7.6629280371945E-03	7.6629280371945E-03	7.6629280371945E-03
7.7108960248797E-03	7.7108960248797E-03	7.7108960248797E-03
7.7589256558709E-03	7.7589256558709E-03	7.7589256558709E-03
7.8070170055172E-03	7.8070170055172E-03	7.8070170055172E-03
7.8551701492492E-03	7.8551701492492E-03	7.8551701492492E-03
7.9033851625787E-03	7.9033851625787E-03	7.9033851625787E-03
7.9516621210994E-03	7.9516621210994E-03	7.9516621210994E-03
8.0000011004865E-03	8.0000011004865E-03	8.0000011004865E-03
8.0484021764966E-03	8.0484021764966E-03	8.0484021764966E-03
8.0968654249684E-03	8.0968654249684E-03	8.0968654249684E-03
8.1453909218220E-03	8.1453909218220E-03	8.1453909218220E-03
8.1939787430598E-03	8.1939787430598E-03	8.1939787430598E-03
8.2426289647655E-03	8.2426289647655E-03	8.2426289647655E-03
8.2913416631052E-03	8.2913416631052E-03	8.2913416631052E-03
8.3401169143268E-03	8.3401169143268E-03	8.3401169143268E-03
8.3889547947604E-03	8.3889547947604E-03	8.3889547947604E-03
8.4378553808180E-03	8.4378553808180E-03	8.4378553808180E-03
8.4868187489940E-03	8.4868187489940E-03	8.4868187489940E-03
8.5358449758648E-03	8.5358449758648E-03	8.5358449758648E-03
8.5849341380893E-03	8.5849341380893E-03	8.5849341380893E-03
8.6340863124087E-03	8.6340863124087E-03	8.6340863124087E-03
8.6833015756465E-03	8.6833015756465E-03	8.6833015756465E-03
8.7325800047087E-03	8.7325800047087E-03	8.7325800047087E-03
8.7819216765838E-03	8.7819216765838E-03	8.7819216765838E-03
8.8313266683431E-03	8.8313266683431E-03	8.8313266683431E-03
8.8807950571401E-03	8.8807950571401E-03	8.8807950571401E-03
8.9303269202114E-03	8.9303269202114E-03	8.9303269202114E-03
8.9799223348761E-03	8.9799223348761E-03	8.9799223348761E-03
9.0295813785362E-03	9.0295813785362E-03	9.0295813785362E-03
9.0793041286765E-03	9.0793041286765E-03	9.0793041286765E-03
9.1290906628647E-03	9.1290906628647E-03	9.1290906628647E-03
9.1789410587516E-03	9.1789410587516E-03	9.1789410587516E-03
9.2288553940708E-03	9.2288553940708E-03	9.2288553940708E-03
9.2788337466393E-03	9.2788337466393E-03	9.2788337466393E-03
9.3288761943568E-03	9.3288761943568E-03	9.3288761943568E-03
9.3789828152067E-03	9.3789828152067E-03	9.3789828152067E-03
9.4291536872553E-03	9.4291536872553E-03	9.4291536872553E-03
9.4793888886523E-03	9.4793888886523E-03	9.4793888886523E-03
9.5296884976308E-03	9.5296884976308E-03	9.5296884976308E-03
9.5800525925072E-03	9.5800525925072E-03	9.5800525925072E-03
9.6304812516815E-03	9.6304812516815E-03	9.6304812516815E-03
9.6809745536373E-03	9.6809745536373E-03	9.6809745536373E-03
9.7315325769416E-03	9.7315325769416E-03	9.7315325769416E-03
9.7821554002450E-03	9.7821554002450E-03	9.7821554002450E-03
9.8328431022822E-03	9.8328431022822E-03	9.8328431022822E-03
9.8835957618711E-03	9.8835957618711E-03	9.8835957618711E-03
9.9344134579139E-03	9.9344134579139E-03	9.9344134579139E-03
9.9852962693963E-03	9.9852962693963E-03	9.9852962693963E-03
1.0036244275388E-02	1.0036244275388E-02	1.0036244275388E-02
1.0087257555043E-02	1.0087257555043E-02	1.0087257555043E-02
1.0138336187599E-02	1.0138336187599E-02	1.0138336187599E-02
1.0189480252378E-02	1.0189480252378E-02	1.0189480252378E-02
1.0240689828785E-02	1.0240689828785E-02	1.0240689828785E-02
1.0291964996312E-02	1.0291964996312E-02	1.0291964996312E-02
1.0343305834532E-02	1.0343305834532E-02	1.0343305834532E-02
1.0394712423104E-02	1.0394712423104E-02	1.0394712423104E-02
1.0446184841771E-02	1.0446184841771E-02	1.0446184841771E-02
1.0497723170361E-02	1.0497723170361E-02	1.0497723170361E-02
1.0549327488786E-02	1.0549327488786E-02	1.0549327488786E-02
1.0600997877043E-02	1.0600997877043E-02	1.0600997877043E-02
1.0652734415211E-02	1.0652734415211E-02	1.0652734415211E-02
1.0704537183458E-02	1.0704537183458E-02	1.0704537183458E-02
1.0756406262034E-02	1.0756406262034E-02	1.0756406262034E-02
1.0808341731273E-02	1.0808341731273E-02	1.0808341731273E-02
1.0860343671596E-02	1.0860343671596E-02	1.0860343671596E-02
1.0912412163508E-02	1.0912412163508E-02	1.0912412163508E-02
1.0964547287598E-02	1.0964547287598E-02	1.0964547287598E-02
1.1016749124540E-02	1.1016749124540E-02	1.1016749124540E-02
1.1069017755096E-02	1.1069017755096E-02	1.1069017755096E-02
1.1121353260108E-02	1.1121353260108E-02	1.1121353260108E-02
1.1173755720508E-02	1.1173755720508E-02	1.1173755720508E-02
1.1226225217311E-02	1.1226225217311E-02	1.1226225217311E-02
1.1278761831615E-02	1.1278761831615E-02	1.1278761831615E-02
1.1331365644608E-02	1.1331365644608E-02	1.1331365644608E-02
1.1384036737560E-02	1.1384036737560E-02	1.1384036737560E-02
1.1436775191827E-02	1.1436775191827E-02	1.1436775191827E-02
1.1489581088852E-02	1.1489581088852E-02	1.1489581088852E-02
1.1542454510160E-02	1.1542454510160E-02	1.1542454510160E-02
1.1595395537365E-02	1.1595395537365E-02	1.1595395537365E-02
1.1648404252166E-02	1.1648404252166E-02	1.1648404252166E-02
1.1701480736347E-02	1.1701480736347E-02	1.1701480736347E-02
1.1754625071776E-02	1.1754625071776E-02	1.1754625071776E-02
1.1807837340410E-02	1.1807837340410E-02	1.1807837340410E-02
1.1861117624290E-02	1.1861117624290E-02	1.1861117624290E-02
1.1914466005543E-02	1.1914466005543E-02	1.1914466005543E-02
1.1967882566382E-02	1.1967882566382E-02	1.1967882566382E-02
1.2021367389106E-02	1.2021367389106E-02	1.2021367389106E-02
1.2074920556100E-02	1.2074920556100E-02	1.2074920556100E-02
1.2128542149836E-02	1.2128542149836E-02	1.2128542149836E-02
1.2182232252871E-02	1.2182232252871E-02	1.2182232252871E-02
1.2235990947848E-02	1.2235990947848E-02	1.2235990947848E-02
1.2289818317497E-02	1.2289818317497E-02	1.2289818317497E-02
1.2343714444633E-02	1.2343714444633E-02	1.2343714444633E-02
1.2397679412160E-02	1.2397679412160E-02	1.2397679412160E-02
1.2451713303065E-02	1.2451713303065E-02	1.2451713303065E-02
1.2505816200425E-02	1.2505816200425E-02	1.2505816200425E-02
1.2559988187400E-02	1.2559988187400E-02	1.2559988187400E-02
1.2614229347239E-02	1.2614229347239E-02	1.2614229347239E-02
1.2668539763277E-02	1.2668539763277E-02	1.2668539763277E-02
1.2722919518934E-02	1.2722919518934E-02	1.2722919518934E-02
1.2777368697719E-02	1.2777368697719E-02	1.2777368697719E-02
1.2831887383228E-02	1.2831887383228E-02	1.2831887383228E-02
1.2886475659141E-02	1.2886475659141E-02	1.2886475659141E-02
1.2941133609227E-02	1.2941133609227E-02	1.2941133609227E-02
1.2995861317341E-02	1.2995861317341E-02	1.2995861317341E-02
1.3050658867427E-02	1.3050658867427E-02	1.3050658867427E-02
1.3105526343512E-02	1.3105526343512E-02	1.3105526343512E-02
1.3160463829714E-02	1.3160463829714E-02	1.3160463829714E-02
1.3215471410236E-02	1.3215471410236E-02	1.3215471410236E-02
1.3270549169369E-02	1.3270549169369E-02	1.3270549169369E-02
1.3325697191491E-02	1.3325697191491E-02	1.3325697191491E-02
1.3380915561066E-02	1.3380915561066E-02	1.3380915561066E-02
1.3436204362648E-02	1.3436204362648E-02	1.3436204362648E-02
1.3491563680875E-02	1.3491563680875E-02	1.3491563680875E-02
1.3546993600476E-02	1.3546993600476E-02	1.3546993600476E-02
1.3602494206265E-02	1.3602494206265E-02	1.3602494206265E-02
1.3658065583143E-02	1.3658065583143E-02	1.3658065583143E-02
1.3713707816102E-02	1.3713707816102E-02	1.3713707816102E-02
1.3769420990217E-02	1.3769420990217E-02	1.3769420990217E-02
1.3825205190654E-02	1.3825205190654E-02	1.3825205190654E-02
1.3881060502666E-02	1.3881060502666E-02	1.3881060502666E-02
1.3936987011593E-02	1.3936987011593E-02	1.3936987011593E-02
1.3992984802863E-02	1.3992984802863E-02	1.3992984802863E-02
1.4049053961992E-02	1.4049053961992E-02	1.4049053961992E-02
1.4105194574585E-02	1.4105194574585E-02	1.4105194574585E-02
1.4161406726333E-02	1.4161406726333E-02	1.4161406726333E-02
1.4217690503016E-02	1.4217690503016E-02	1.4217690503016E-02
1.4274045990502E-02	1.4274045990502E-02	1.4274045990502E-02
1.4330473274747E-02	1.4330473274747E-02	1.4330473274747E-02
1.4386972441795E-02	1.4386972441795E-02	1.4386972441795E-02
1.4443543577779E-02	1.4443543577779E-02	1.4443543577779E-02
1.4500186768920E-02	1.4500186768920E-02	1.4500186768920E-02
1.4556902101526E-02	1.4556902101526E-02	1.4556902101526E-02
1.4613689661994E-02	1.4613689661994E-02	1.4613689661994E-02
1.4670549536810E-02	1.4670549536810E-02	1.4670549536810E-02
1.4727481812549E-02	1.4727481812549E-02	1.4727481812549E-02
1.4784486575872E-02	1.4784486575872E-02	1.4784486575872E-02
1.4841563913531E-02	1.4841563913531E-02	1.4841563913531E-02
1.4898713912365E-02	1.4898713912365E-02	1.4898713912365E-02
1.4955936659303E-02	1.4955936659303E-02	1.4955936659303E-02
1.5013232241362E-02	1.5013232241362E-02	1.5013232241362E-02
1.5070600745646E-02	1.5070600745646E-02	1.5070600745646E-02
1.5128042259352E-02	1.5128042259352E-02	1.5128042259352E-02
1.5185556869761E-02	1.5185556869761E-02	1.5185556869761E-02
1.5243144664246E-02	1.5243144664246E-02	1.5243144664246E-02
1.5300805730269E-02	1.5300805730269E-02	1.5300805730269E-02
1.5358540155377E-02	1.5358540155377E-02	1.5358540155377E-02
1.5416348027212E-02	1.5416348027212E-02	1.5416348027212E-02
1.5474229433501E-02	1.5474229433501E-02	1.5474229433501E-02
1.5532184462060E-02	1.5532184462060E-02	1.5532184462060E-02
1.5590213200796E-02	1.5590213200796E-02	1.5590213200796E-02
1.5648315737704E-02	1.5648315737704E-02	1.5648315737704E-02
1.5706492160870E-02	1.5706492160870E-02	1.5706492160870E-02
1.5764742558466E-02	1.5764742558466E-02	1.5764742558466E-02
1.5823067018756E-02	1.5823067018756E-02	1.5823067018756E-02
1.5881465630093E-02	1.5881465630093E-02	1.5881465630093E-02
1.5939938480918E-02	1.5939938480918E-02	1.5939938480918E-02
1.5998485659763E-02	1.5998485659763E-02	1.5998485659763E-02
1.6057107255249E-02	1.6057107255249E-02	1.6057107255249E-02
1.6115803356086E-02	1.6115803356086E-02	1.6115803356086E-02
1.6174574051074E-02	1.6174574051074E-02	1.6174574051074E-02
1.6233419429104E-02	1.6233419429104E-02	1.6233419429104E-02
1.6292339579154E-02	1.6292339579154E-02	1.6292339579154E-02
1.6351334590293E-02	1.6351334590293E-02	1.6351334590293E-02
1.6410404551680E-02	1.6410404551680E-02	1.6410404551680E-02
1.6469549552565E-02	1.6469549552565E-02	1.6469549552565E-02
1.6528769682285E-02	1.6528769682285E-02	1.6528769682285E-02
1.6588065030269E-02	1.6588065030269E-02	1.6588065030269E-02
1.6647435686035E-02	1.6647435686035E-02	1.6647435686035E-02
1.6706881739191E-02	1.6706881739191E-02	1.6706881739191E-02
1.6766403279437E-02	1.6766403279437E-02	1.6766403279437E-02
1.6826000396560E-02	1.6826000396560E-02	1.6826000396560E-02
1.6885673180440E-02	1.6885673180440E-02	1.6885673180440E-02
1.6945421721044E-02	1.6945421721044E-02	1.6945421721044E-02
1.7005246108432E-02	1.7005246108432E-02	1.7005246108432E-02
1.7065146432752E-02	1.7065146432752E-02	1.7065146432752E-02
1.7125122784246E-02	1.7125122784246E-02	1.7125122784246E-02
1.7185175253241E-02	1.7185175253241E-02	1.7185175253241E-02
1.7245303930160E-02	1.7245303930160E-02	1.7245303930160E-02
1.7305508905511E-02	1.7305508905511E-02	1.7305508905511E-02
1.7365790269896E-02	1.7365790269896E-02	1.7365790269896E-02
1.7426148114007E-02	1.7426148114007E-02	1.7426148114007E-02
1.7486582528627E-02	1.7486582528627E-02	1.7486582528627E-02
1.7547093604627E-02	1.7547093604627E-02	1.7547093604627E-02
1.7607681432970E-02	1.7607681432970E-02	1.7607681432970E-02
1.7668346104712E-02	1.7668346104712E-02	1.7668346104712E-02
1.7729087710997E-02	1.7729087710997E-02	1.7729087710997E-02
1.7789906343060E-02	1.7789906343060E-02	1.7789906343060E-02
1.7850802092228E-02	1.7850802092228E-02	1.7850802092228E-02
1.7911775049917E-02	1.7911775049917E-02	1.7911775049917E-02
1.7972825307636E-02	1.7972825307636E-02	1.7972825307636E-02
1.8033952956984E-02	1.8033952956984E-02	1.8033952956984E-02
1.8095158089650E-02	1.8095158089650E-02	1.8095158089650E-02
1.8156440797416E-02	1.8156440797416E-02	1.8156440797416E-02
1.8217801172153E-02	1.8217801172153E-02	1.8217801172153E-02
1.8279239305825E-02	1.8279239305825E-02	1.8279239305825E-02
1.8340755290485E-02	1.8340755290485E-02	1.8340755290485E-02
1.8402349218279E-02	1.8402349218279E-02	1.8402349218279E-02
1.8464021181443E-02	1.8464021181443E-02	1.8464021181443E-02
1.8525771272306E-02	1.8525771272306E-02	1.8525771272306E-02
1.8587599583285E-02	1.8587599583285E-02	1.8587599583285E-02
1.8649506206892E-02	1.8649506206892E-02	1.8649506206892E-02
1.8711491235728E-02	1.8711491235728E-02	1.8711491235728E-02
1.8773554762486E-02	1.8773554762486E-02	1.8773554762486E-02
1.8835696879951E-02	1.8835696879951E-02	1.8835696879951E-02
1.8897917680999E-02	1.8897917680999E-02	1.8897917680999E-02
1.8960217258597E-02	1.8960217258597E-02	1.8960217258597E-02
1.9022595705805E-02	1.9022595705805E-02	1.9022595705805E-02
1.9085053115773E-02	1.9085053115773E-02	1.9085053115773E-02
1.9147589581743E-02	1.9147589581743E-02	1.9147589581743E-02
1.9210205197050E-02	1.9210205197050E-02	1.9210205197050E-02
1.9272900055118E-02	1.9272900055118E-02	1.9272900055118E-02
1.9335674249467E-02	1.9335674249467E-02	1.9335674249467E-02
1.9398527873704E-02	1.9398527873704E-02	1.9398527873704E-02
1.9461461021530E-02	1.9461461021530E-02	1.9461461021530E-02
1.9524473786740E-02	1.9524473786740E-02	1.9524473786740E-02
1.9587566263217E-02	1.9587566263217E-02	1.9587566263217E-02
1.9650738544938E-02	1.9650738544938E-02	1.9650738544938E-02
1.9713990725971E-02	1.9713990725971E-02	1.9713990725971E-02
