Addons/Fimic/Filmic Resolve - Base Contrast.cube
# Filmic Base Contrast		
LUT_1D_SIZE 4096		
LUT_1D_INPUT_RANGE 0.000000000 1.000000000		
0.0000000000000E+00	0.0000000000000E+00	0.0000000000000E+00
1.3546595638040E-05	1.3546595638040E-05	1.3546595638040E-05
2.7119409093229E-05	2.7119409093229E-05	2.7119409093229E-05
4.0718490533262E-05	4.0718490533262E-05	4.0718490533262E-05
5.4343890219558E-05	5.4343890219558E-05	5.4343890219558E-05
6.7995658507426E-05	6.7995658507426E-05	6.7995658507426E-05
8.1673845846238E-05	8.1673845846238E-05	8.1673845846238E-05
9.5378502779586E-05	9.5378502779586E-05	9.5378502779586E-05
1.0910967994546E-04	1.0910967994546E-04	1.0910967994546E-04
1.2286742807640E-04	1.2286742807640E-04	1.2286742807640E-04
1.3665179799967E-04	1.3665179799967E-04	1.3665179799967E-04
1.5046284063746E-04	1.5046284063746E-04	1.5046284063746E-04
1.6430060700698E-04	1.6430060700698E-04	1.6430060700698E-04
1.7816514822069E-04	1.7816514822069E-04	1.7816514822069E-04
1.9205651548645E-04	1.9205651548645E-04	1.9205651548645E-04
2.0597476010769E-04	2.0597476010769E-04	2.0597476010769E-04
2.1991993348356E-04	2.1991993348356E-04	2.1991993348356E-04
2.3389208710913E-04	2.3389208710913E-04	2.3389208710913E-04
2.4789127257554E-04	2.4789127257554E-04	2.4789127257554E-04
2.6191754157019E-04	2.6191754157019E-04	2.6191754157019E-04
2.7597094587686E-04	2.7597094587686E-04	2.7597094587686E-04
2.9005153737594E-04	2.9005153737594E-04	2.9005153737594E-04
3.0415936804458E-04	3.0415936804458E-04	3.0415936804458E-04
3.1829448995685E-04	3.1829448995685E-04	3.1829448995685E-04
3.3245695528390E-04	3.3245695528390E-04	3.3245695528390E-04
3.4664681629417E-04	3.4664681629417E-04	3.4664681629417E-04
3.6086412535353E-04	3.6086412535353E-04	3.6086412535353E-04
3.7510893492548E-04	3.7510893492548E-04	3.7510893492548E-04
3.8938129757127E-04	3.8938129757127E-04	3.8938129757127E-04
4.0368126595014E-04	4.0368126595014E-04	4.0368126595014E-04
4.1800889281943E-04	4.1800889281943E-04	4.1800889281943E-04
4.3236423103482E-04	4.3236423103482E-04	4.3236423103482E-04
4.4674733355042E-04	4.4674733355042E-04	4.4674733355042E-04
4.6115825341903E-04	4.6115825341903E-04	4.6115825341903E-04
4.7559704379223E-04	4.7559704379223E-04	4.7559704379223E-04
4.9006375792064E-04	4.9006375792064E-04	4.9006375792064E-04
5.0455844915402E-04	5.0455844915402E-04	5.0455844915402E-04
5.1908117094149E-04	5.1908117094149E-04	5.1908117094149E-04
5.3363197683168E-04	5.3363197683168E-04	5.3363197683168E-04
5.4821092047292E-04	5.4821092047292E-04	5.4821092047292E-04
5.6281805561340E-04	5.6281805561340E-04	5.6281805561340E-04
5.7745343610138E-04	5.7745343610138E-04	5.7745343610138E-04
5.9211711588532E-04	5.9211711588532E-04	5.9211711588532E-04
6.0680914901407E-04	6.0680914901407E-04	6.0680914901407E-04
6.2152958963709E-04	6.2152958963709E-04	6.2152958963709E-04
6.3627849200454E-04	6.3627849200454E-04	6.3627849200454E-04
6.5105591046755E-04	6.5105591046755E-04	6.5105591046755E-04
6.6586189947834E-04	6.6586189947834E-04	6.6586189947834E-04
6.8069651359040E-04	6.8069651359040E-04	6.8069651359040E-04
6.9555980745870E-04	6.9555980745870E-04	6.9555980745870E-04
7.1045183583983E-04	7.1045183583983E-04	7.1045183583983E-04
7.2537265359221E-04	7.2537265359221E-04	7.2537265359221E-04
7.4032231567624E-04	7.4032231567624E-04	7.4032231567624E-04
7.5530087715449E-04	7.5530087715449E-04	7.5530087715449E-04
7.7030839319191E-04	7.7030839319191E-04	7.7030839319191E-04
7.8534491905595E-04	7.8534491905595E-04	7.8534491905595E-04
8.0041051011679E-04	8.0041051011679E-04	8.0041051011679E-04
8.1550522184749E-04	8.1550522184749E-04	8.1550522184749E-04
8.3062910982419E-04	8.3062910982419E-04	8.3062910982419E-04
8.4578222972627E-04	8.4578222972627E-04	8.4578222972627E-04
8.6096463733655E-04	8.6096463733655E-04	8.6096463733655E-04
8.7617638854145E-04	8.7617638854145E-04	8.7617638854145E-04
8.9141753933121E-04	8.9141753933121E-04	8.9141753933121E-04
9.0668814580003E-04	9.0668814580003E-04	9.0668814580003E-04
9.2198826414625E-04	9.2198826414625E-04	9.2198826414625E-04
9.3731795067258E-04	9.3731795067258E-04	9.3731795067258E-04
9.5267726178623E-04	9.5267726178623E-04	9.5267726178623E-04
9.6806625399912E-04	9.6806625399912E-04	9.6806625399912E-04
9.8348498392806E-04	9.8348498392806E-04	9.8348498392806E-04
9.9893350829494E-04	9.9893350829494E-04	9.9893350829494E-04
1.0144118839269E-03	1.0144118839269E-03	1.0144118839269E-03
1.0299201677564E-03	1.0299201677564E-03	1.0299201677564E-03
1.0454584168218E-03	1.0454584168218E-03	1.0454584168218E-03
1.0610266882670E-03	1.0610266882670E-03	1.0610266882670E-03
1.0766250393420E-03	1.0766250393420E-03	1.0766250393420E-03
1.0922535274029E-03	1.0922535274029E-03	1.0922535274029E-03
1.1079122099123E-03	1.1079122099123E-03	1.1079122099123E-03
1.1236011444392E-03	1.1236011444392E-03	1.1236011444392E-03
1.1393203886594E-03	1.1393203886594E-03	1.1393203886594E-03
1.1550700003557E-03	1.1550700003557E-03	1.1550700003557E-03
1.1708500374178E-03	1.1708500374178E-03	1.1708500374178E-03
1.1866605578428E-03	1.1866605578428E-03	1.1866605578428E-03
1.2025016197353E-03	1.2025016197353E-03	1.2025016197353E-03
1.2183732813076E-03	1.2183732813076E-03	1.2183732813076E-03
1.2342756008797E-03	1.2342756008797E-03	1.2342756008797E-03
1.2502086368797E-03	1.2502086368797E-03	1.2502086368797E-03
1.2661724478440E-03	1.2661724478440E-03	1.2661724478440E-03
1.2821670924174E-03	1.2821670924174E-03	1.2821670924174E-03
1.2981926293532E-03	1.2981926293532E-03	1.2981926293532E-03
1.3142491175135E-03	1.3142491175135E-03	1.3142491175135E-03
1.3303366158695E-03	1.3303366158695E-03	1.3303366158695E-03
1.3464551835015E-03	1.3464551835015E-03	1.3464551835015E-03
1.3626048795991E-03	1.3626048795991E-03	1.3626048795991E-03
1.3787857634616E-03	1.3787857634616E-03	1.3787857634616E-03
1.3949978944978E-03	1.3949978944978E-03	1.3949978944978E-03
1.4112413322266E-03	1.4112413322266E-03	1.4112413322266E-03
1.4275161362770E-03	1.4275161362770E-03	1.4275161362770E-03
1.4438223663883E-03	1.4438223663883E-03	1.4438223663883E-03
1.4601600824103E-03	1.4601600824103E-03	1.4601600824103E-03
1.4765293443035E-03	1.4765293443035E-03	1.4765293443035E-03
1.4929302121391E-03	1.4929302121391E-03	1.4929302121391E-03
1.5093627460997E-03	1.5093627460997E-03	1.5093627460997E-03
1.5258270064790E-03	1.5258270064790E-03	1.5258270064790E-03
1.5423230536820E-03	1.5423230536820E-03	1.5423230536820E-03
1.5588509482257E-03	1.5588509482257E-03	1.5588509482257E-03
1.5754107507387E-03	1.5754107507387E-03	1.5754107507387E-03
1.5920025219617E-03	1.5920025219617E-03	1.5920025219617E-03
1.6086263227475E-03	1.6086263227475E-03	1.6086263227475E-03
1.6252822140617E-03	1.6252822140617E-03	1.6252822140617E-03
1.6419702569820E-03	1.6419702569820E-03	1.6419702569820E-03
1.6586905126994E-03	1.6586905126994E-03	1.6586905126994E-03
1.6754430425176E-03	1.6754430425176E-03	1.6754430425176E-03
1.6922279078536E-03	1.6922279078536E-03	1.6922279078536E-03
1.7090451702378E-03	1.7090451702378E-03	1.7090451702378E-03
1.7258948913143E-03	1.7258948913143E-03	1.7258948913143E-03
1.7427771328408E-03	1.7427771328408E-03	1.7427771328408E-03
1.7596919566890E-03	1.7596919566890E-03	1.7596919566890E-03
1.7766394248450E-03	1.7766394248450E-03	1.7766394248450E-03
1.7936195994091E-03	1.7936195994091E-03	1.7936195994091E-03
1.8106325425961E-03	1.8106325425961E-03	1.8106325425961E-03
1.8276783167359E-03	1.8276783167359E-03	1.8276783167359E-03
1.8447569842730E-03	1.8447569842730E-03	1.8447569842730E-03
1.8618686077673E-03	1.8618686077673E-03	1.8618686077673E-03
1.8790132498940E-03	1.8790132498940E-03	1.8790132498940E-03
1.8961909734438E-03	1.8961909734438E-03	1.8961909734438E-03
1.9134018413233E-03	1.9134018413233E-03	1.9134018413233E-03
1.9306459165550E-03	1.9306459165550E-03	1.9306459165550E-03
1.9479232622775E-03	1.9479232622775E-03	1.9479232622775E-03
1.9652339417459E-03	1.9652339417459E-03	1.9652339417459E-03
1.9825780183318E-03	1.9825780183318E-03	1.9825780183318E-03
1.9999555555235E-03	1.9999555555235E-03	1.9999555555235E-03
2.0173666169262E-03	2.0173666169262E-03	2.0173666169262E-03
2.0348112662626E-03	2.0348112662626E-03	2.0348112662626E-03
2.0522895673724E-03	2.0522895673724E-03	2.0522895673724E-03
2.0698015842131E-03	2.0698015842131E-03	2.0698015842131E-03
2.0873473808598E-03	2.0873473808598E-03	2.0873473808598E-03
2.1049270215056E-03	2.1049270215056E-03	2.1049270215056E-03
2.1225405704620E-03	2.1225405704620E-03	2.1225405704620E-03
2.1401880921585E-03	2.1401880921585E-03	2.1401880921585E-03
2.1578696511435E-03	2.1578696511435E-03	2.1578696511435E-03
2.1755853120840E-03	2.1755853120840E-03	2.1755853120840E-03
2.1933351397660E-03	2.1933351397660E-03	2.1933351397660E-03
2.2111191990948E-03	2.2111191990948E-03	2.2111191990948E-03
2.2289375550949E-03	2.2289375550949E-03	2.2289375550949E-03
2.2467902729106E-03	2.2467902729106E-03	2.2467902729106E-03
2.2646774178058E-03	2.2646774178058E-03	2.2646774178058E-03
2.2825990551647E-03	2.2825990551647E-03	2.2825990551647E-03
2.3005552504913E-03	2.3005552504913E-03	2.3005552504913E-03
2.3185460694103E-03	2.3185460694103E-03	2.3185460694103E-03
2.3365715776670E-03	2.3365715776670E-03	2.3365715776670E-03
2.3546318411275E-03	2.3546318411275E-03	2.3546318411275E-03
2.3727269257788E-03	2.3727269257788E-03	2.3727269257788E-03
2.3908568977293E-03	2.3908568977293E-03	2.3908568977293E-03
2.4090218232088E-03	2.4090218232088E-03	2.4090218232088E-03
2.4272217685687E-03	2.4272217685687E-03	2.4272217685687E-03
2.4454568002823E-03	2.4454568002823E-03	2.4454568002823E-03
2.4637269849450E-03	2.4637269849450E-03	2.4637269849450E-03
2.4820323892744E-03	2.4820323892744E-03	2.4820323892744E-03
2.5003730801106E-03	2.5003730801106E-03	2.5003730801106E-03
2.5187491244165E-03	2.5187491244165E-03	2.5187491244165E-03
2.5371605892778E-03	2.5371605892778E-03	2.5371605892778E-03
2.5556075419032E-03	2.5556075419032E-03	2.5556075419032E-03
2.5740900496250E-03	2.5740900496250E-03	2.5740900496250E-03
2.5926081798987E-03	2.5926081798987E-03	2.5926081798987E-03
2.6111620003039E-03	2.6111620003039E-03	2.6111620003039E-03
2.6297515785437E-03	2.6297515785437E-03	2.6297515785437E-03
2.6483769824458E-03	2.6483769824458E-03	2.6483769824458E-03
2.6670382799621E-03	2.6670382799621E-03	2.6670382799621E-03
2.6857355391689E-03	2.6857355391689E-03	2.6857355391689E-03
2.7044688282675E-03	2.7044688282675E-03	2.7044688282675E-03
2.7232382155841E-03	2.7232382155841E-03	2.7232382155841E-03
2.7420437695703E-03	2.7420437695703E-03	2.7420437695703E-03
2.7608855588030E-03	2.7608855588030E-03	2.7608855588030E-03
2.7797636519845E-03	2.7797636519845E-03	2.7797636519845E-03
2.7986781179434E-03	2.7986781179434E-03	2.7986781179434E-03
2.8176290256340E-03	2.8176290256340E-03	2.8176290256340E-03
2.8366164441371E-03	2.8366164441371E-03	2.8366164441371E-03
2.8556404426599E-03	2.8556404426599E-03	2.8556404426599E-03
2.8747010905364E-03	2.8747010905364E-03	2.8747010905364E-03
2.8937984572273E-03	2.8937984572273E-03	2.8937984572273E-03
2.9129326123206E-03	2.9129326123206E-03	2.9129326123206E-03
2.9321036255317E-03	2.9321036255317E-03	2.9321036255317E-03
2.9513115667034E-03	2.9513115667034E-03	2.9513115667034E-03
2.9705565058065E-03	2.9705565058065E-03	2.9705565058065E-03
2.9898385129395E-03	2.9898385129395E-03	2.9898385129395E-03
3.0091576583293E-03	3.0091576583293E-03	3.0091576583293E-03
3.0285140123313E-03	3.0285140123313E-03	3.0285140123313E-03
3.0479076454293E-03	3.0479076454293E-03	3.0479076454293E-03
3.0673386282363E-03	3.0673386282363E-03	3.0673386282363E-03
3.0868070314941E-03	3.0868070314941E-03	3.0868070314941E-03
3.1063129260737E-03	3.1063129260737E-03	3.1063129260737E-03
3.1258563829761E-03	3.1258563829761E-03	3.1258563829761E-03
3.1454374733315E-03	3.1454374733315E-03	3.1454374733315E-03
3.1650562684003E-03	3.1650562684003E-03	3.1650562684003E-03
3.1847128395731E-03	3.1847128395731E-03	3.1847128395731E-03
3.2044072583709E-03	3.2044072583709E-03	3.2044072583709E-03
3.2241395964450E-03	3.2241395964450E-03	3.2241395964450E-03
3.2439099255780E-03	3.2439099255780E-03	3.2439099255780E-03
3.2637183176831E-03	3.2637183176831E-03	3.2637183176831E-03
3.2835648448052E-03	3.2835648448052E-03	3.2835648448052E-03
3.3034495791202E-03	3.3034495791202E-03	3.3034495791202E-03
3.3233725929361E-03	3.3233725929361E-03	3.3233725929361E-03
3.3433339586927E-03	3.3433339586927E-03	3.3433339586927E-03
3.3633337489619E-03	3.3633337489619E-03	3.3633337489619E-03
3.3833720364479E-03	3.3833720364479E-03	3.3833720364479E-03
3.4034488939878E-03	3.4034488939878E-03	3.4034488939878E-03
3.4235643945512E-03	3.4235643945512E-03	3.4235643945512E-03
3.4437186112408E-03	3.4437186112408E-03	3.4437186112408E-03
3.4639116172927E-03	3.4639116172927E-03	3.4639116172927E-03
3.4841434860763E-03	3.4841434860763E-03	3.4841434860763E-03
3.5044142910948E-03	3.5044142910948E-03	3.5044142910948E-03
3.5247241059854E-03	3.5247241059854E-03	3.5247241059854E-03
3.5450730045193E-03	3.5450730045193E-03	3.5450730045193E-03
3.5654610606022E-03	3.5654610606022E-03	3.5654610606022E-03
3.5858883482743E-03	3.5858883482743E-03	3.5858883482743E-03
3.6063549417106E-03	3.6063549417106E-03	3.6063549417106E-03
3.6268609152214E-03	3.6268609152214E-03	3.6268609152214E-03
3.6474063432519E-03	3.6474063432519E-03	3.6474063432519E-03
3.6679913003832E-03	3.6679913003832E-03	3.6679913003832E-03
3.6886158613318E-03	3.6886158613318E-03	3.6886158613318E-03
3.7092801009503E-03	3.7092801009503E-03	3.7092801009503E-03
3.7299840942274E-03	3.7299840942274E-03	3.7299840942274E-03
3.7507279162884E-03	3.7507279162884E-03	3.7507279162884E-03
3.7715116423950E-03	3.7715116423950E-03	3.7715116423950E-03
3.7923353479459E-03	3.7923353479459E-03	3.7923353479459E-03
3.8131991084768E-03	3.8131991084768E-03	3.8131991084768E-03
3.8341029996608E-03	3.8341029996608E-03	3.8341029996608E-03
3.8550470973086E-03	3.8550470973086E-03	3.8550470973086E-03
3.8760314773684E-03	3.8760314773684E-03	3.8760314773684E-03
3.8970562159267E-03	3.8970562159267E-03	3.8970562159267E-03
3.9181213892082E-03	3.9181213892082E-03	3.9181213892082E-03
3.9392270735757E-03	3.9392270735757E-03	3.9392270735757E-03
3.9603733455312E-03	3.9603733455312E-03	3.9603733455312E-03
3.9815602817154E-03	3.9815602817154E-03	3.9815602817154E-03
4.0027879589080E-03	4.0027879589080E-03	4.0027879589080E-03
4.0240564540283E-03	4.0240564540283E-03	4.0240564540283E-03
4.0453658441350E-03	4.0453658441350E-03	4.0453658441350E-03
4.0667162064270E-03	4.0667162064270E-03	4.0667162064270E-03
4.0881076182428E-03	4.0881076182428E-03	4.0881076182428E-03
4.1095401570617E-03	4.1095401570617E-03	4.1095401570617E-03
4.1310139005031E-03	4.1310139005031E-03	4.1310139005031E-03
4.1525289263274E-03	4.1525289263274E-03	4.1525289263274E-03
4.1740853124361E-03	4.1740853124361E-03	4.1740853124361E-03
4.1956831368716E-03	4.1956831368716E-03	4.1956831368716E-03
4.2173224778180E-03	4.2173224778180E-03	4.2173224778180E-03
4.2390034136012E-03	4.2390034136012E-03	4.2390034136012E-03
4.2607260226889E-03	4.2607260226889E-03	4.2607260226889E-03
4.2824903836908E-03	4.2824903836908E-03	4.2824903836908E-03
4.3042965753594E-03	4.3042965753594E-03	4.3042965753594E-03
4.3261446765894E-03	4.3261446765894E-03	4.3261446765894E-03
4.3480347664188E-03	4.3480347664188E-03	4.3480347664188E-03
4.3699669240284E-03	4.3699669240284E-03	4.3699669240284E-03
4.3919412287425E-03	4.3919412287425E-03	4.3919412287425E-03
4.4139577600288E-03	4.4139577600288E-03	4.4139577600288E-03
4.4360165974992E-03	4.4360165974992E-03	4.4360165974992E-03
4.4581178209091E-03	4.4581178209091E-03	4.4581178209091E-03
4.4802615101588E-03	4.4802615101588E-03	4.4802615101588E-03
4.5024477452926E-03	4.5024477452926E-03	4.5024477452926E-03
4.5246766064998E-03	4.5246766064998E-03	4.5246766064998E-03
4.5469481741148E-03	4.5469481741148E-03	4.5469481741148E-03
4.5692625286170E-03	4.5692625286170E-03	4.5692625286170E-03
4.5916197506315E-03	4.5916197506315E-03	4.5916197506315E-03
4.6140199209290E-03	4.6140199209290E-03	4.6140199209290E-03
4.6364631204262E-03	4.6364631204262E-03	4.6364631204262E-03
4.6589494301858E-03	4.6589494301858E-03	4.6589494301858E-03
4.6814789314174E-03	4.6814789314174E-03	4.6814789314174E-03
4.7040517054767E-03	4.7040517054767E-03	4.7040517054767E-03
4.7266678338667E-03	4.7266678338667E-03	4.7266678338667E-03
4.7493273982375E-03	4.7493273982375E-03	4.7493273982375E-03
4.7720304803865E-03	4.7720304803865E-03	4.7720304803865E-03
4.7947771622587E-03	4.7947771622587E-03	4.7947771622587E-03
4.8175675259471E-03	4.8175675259471E-03	4.8175675259471E-03
4.8404016536927E-03	4.8404016536927E-03	4.8404016536927E-03
4.8632796278851E-03	4.8632796278851E-03	4.8632796278851E-03
4.8862015310621E-03	4.8862015310621E-03	4.8862015310621E-03
4.9091674459107E-03	4.9091674459107E-03	4.9091674459107E-03
4.9321774552668E-03	4.9321774552668E-03	4.9321774552668E-03
4.9552316421158E-03	4.9552316421158E-03	4.9552316421158E-03
4.9783300895923E-03	4.9783300895923E-03	4.9783300895923E-03
5.0014728809812E-03	5.0014728809812E-03	5.0014728809812E-03
5.0246600997171E-03	5.0246600997171E-03	5.0246600997171E-03
5.0478918293851E-03	5.0478918293851E-03	5.0478918293851E-03
5.0711681537207E-03	5.0711681537207E-03	5.0711681537207E-03
5.0944891566103E-03	5.0944891566103E-03	5.0944891566103E-03
5.1178549220913E-03	5.1178549220913E-03	5.1178549220913E-03
5.1412655343523E-03	5.1412655343523E-03	5.1412655343523E-03
5.1647210777336E-03	5.1647210777336E-03	5.1647210777336E-03
5.1882216367272E-03	5.1882216367272E-03	5.1882216367272E-03
5.2117672959770E-03	5.2117672959770E-03	5.2117672959770E-03
5.2353581402793E-03	5.2353581402793E-03	5.2353581402793E-03
5.2589942545828E-03	5.2589942545828E-03	5.2589942545828E-03
5.2826757239892E-03	5.2826757239892E-03	5.2826757239892E-03
5.3064026337529E-03	5.3064026337529E-03	5.3064026337529E-03
5.3301750692817E-03	5.3301750692817E-03	5.3301750692817E-03
5.3539931161369E-03	5.3539931161369E-03	5.3539931161369E-03
5.3778568600335E-03	5.3778568600335E-03	5.3778568600335E-03
5.4017663868406E-03	5.4017663868406E-03	5.4017663868406E-03
5.4257217825814E-03	5.4257217825814E-03	5.4257217825814E-03
5.4497231334338E-03	5.4497231334338E-03	5.4497231334338E-03
5.4737705257301E-03	5.4737705257301E-03	5.4737705257301E-03
5.4978640459580E-03	5.4978640459580E-03	5.4978640459580E-03
5.5220037807601E-03	5.5220037807601E-03	5.5220037807601E-03
5.5461898169347E-03	5.5461898169347E-03	5.5461898169347E-03
5.5704222414358E-03	5.5704222414358E-03	5.5704222414358E-03
5.5947011413734E-03	5.5947011413734E-03	5.5947011413734E-03
5.6190266040136E-03	5.6190266040136E-03	5.6190266040136E-03
5.6433987167792E-03	5.6433987167792E-03	5.6433987167792E-03
5.6678175672496E-03	5.6678175672496E-03	5.6678175672496E-03
5.6922832431614E-03	5.6922832431614E-03	5.6922832431614E-03
5.7167958324081E-03	5.7167958324081E-03	5.7167958324081E-03
5.7413554230410E-03	5.7413554230410E-03	5.7413554230410E-03
5.7659621032692E-03	5.7659621032692E-03	5.7659621032692E-03
5.7906159614594E-03	5.7906159614594E-03	5.7906159614594E-03
5.8153170861371E-03	5.8153170861371E-03	5.8153170861371E-03
5.8400655659858E-03	5.8400655659858E-03	5.8400655659858E-03
5.8648614898483E-03	5.8648614898483E-03	5.8648614898483E-03
5.8897049467258E-03	5.8897049467258E-03	5.8897049467258E-03
5.9145960257794E-03	5.9145960257794E-03	5.9145960257794E-03
5.9395348163294E-03	5.9395348163294E-03	5.9395348163294E-03
5.9645214078558E-03	5.9645214078558E-03	5.9645214078558E-03
5.9895558899989E-03	5.9895558899989E-03	5.9895558899989E-03
6.0146383525590E-03	6.0146383525590E-03	6.0146383525590E-03
6.0397688854974E-03	6.0397688854974E-03	6.0397688854974E-03
6.0649475789357E-03	6.0649475789357E-03	6.0649475789357E-03
6.0901745231568E-03	6.0901745231568E-03	6.0901745231568E-03
6.1154498086051E-03	6.1154498086051E-03	6.1154498086051E-03
6.1407735258862E-03	6.1407735258862E-03	6.1407735258862E-03
6.1661457657678E-03	6.1661457657678E-03	6.1661457657678E-03
6.1915666191797E-03	6.1915666191797E-03	6.1915666191797E-03
6.2170361772139E-03	6.2170361772139E-03	6.2170361772139E-03
6.2425545311250E-03	6.2425545311250E-03	6.2425545311250E-03
6.2681217723307E-03	6.2681217723307E-03	6.2681217723307E-03
6.2937379924115E-03	6.2937379924115E-03	6.2937379924115E-03
6.3194032831116E-03	6.3194032831116E-03	6.3194032831116E-03
6.3451177363387E-03	6.3451177363387E-03	6.3451177363387E-03
6.3708814441643E-03	6.3708814441643E-03	6.3708814441643E-03
6.3966944988242E-03	6.3966944988242E-03	6.3966944988242E-03
6.4225569927186E-03	6.4225569927186E-03	6.4225569927186E-03
6.4484690184124E-03	6.4484690184124E-03	6.4484690184124E-03
6.4744306686353E-03	6.4744306686353E-03	6.4744306686353E-03
6.5004420362824E-03	6.5004420362824E-03	6.5004420362824E-03
6.5265032144141E-03	6.5265032144141E-03	6.5265032144141E-03
6.5526142962567E-03	6.5526142962567E-03	6.5526142962567E-03
6.5787753752023E-03	6.5787753752023E-03	6.5787753752023E-03
6.6049865448093E-03	6.6049865448093E-03	6.6049865448093E-03
6.6312478988028E-03	6.6312478988028E-03	6.6312478988028E-03
6.6575595310744E-03	6.6575595310744E-03	6.6575595310744E-03
6.6839215356828E-03	6.6839215356828E-03	6.6839215356828E-03
6.7103340068542E-03	6.7103340068542E-03	6.7103340068542E-03
6.7367970389821E-03	6.7367970389821E-03	6.7367970389821E-03
6.7633107266280E-03	6.7633107266280E-03	6.7633107266280E-03
6.7898751645213E-03	6.7898751645213E-03	6.7898751645213E-03
6.8164904475601E-03	6.8164904475601E-03	6.8164904475601E-03
6.8431566708108E-03	6.8431566708108E-03	6.8431566708108E-03
6.8698739295087E-03	6.8698739295087E-03	6.8698739295087E-03
6.8966423190585E-03	6.8966423190585E-03	6.8966423190585E-03
6.9234619350339E-03	6.9234619350339E-03	6.9234619350339E-03
6.9503328731788E-03	6.9503328731788E-03	6.9503328731788E-03
6.9772552294065E-03	6.9772552294065E-03	6.9772552294065E-03
7.0042290998009E-03	7.0042290998009E-03	7.0042290998009E-03
7.0312545806163E-03	7.0312545806163E-03	7.0312545806163E-03
7.0583317682776E-03	7.0583317682776E-03	7.0583317682776E-03
7.0854607593809E-03	7.0854607593809E-03	7.0854607593809E-03
7.1126416506933E-03	7.1126416506933E-03	7.1126416506933E-03
7.1398745391537E-03	7.1398745391537E-03	7.1398745391537E-03
7.1671595218728E-03	7.1671595218728E-03	7.1671595218728E-03
7.1944966961333E-03	7.1944966961333E-03	7.1944966961333E-03
7.2218861593901E-03	7.2218861593901E-03	7.2218861593901E-03
7.2493280092710E-03	7.2493280092710E-03	7.2493280092710E-03
7.2768223435765E-03	7.2768223435765E-03	7.2768223435765E-03
7.3043692602803E-03	7.3043692602803E-03	7.3043692602803E-03
7.3319688575295E-03	7.3319688575295E-03	7.3319688575295E-03
7.3596212336450E-03	7.3596212336450E-03	7.3596212336450E-03
7.3873264871216E-03	7.3873264871216E-03	7.3873264871216E-03
7.4150847166281E-03	7.4150847166281E-03	7.4150847166281E-03
7.4428960210083E-03	7.4428960210083E-03	7.4428960210083E-03
7.4707604992802E-03	7.4707604992802E-03	7.4707604992802E-03
7.4986782506373E-03	7.4986782506373E-03	7.4986782506373E-03
7.5266493744481E-03	7.5266493744481E-03	7.5266493744481E-03
7.5546739702570E-03	7.5546739702570E-03	7.5546739702570E-03
7.5827521377839E-03	7.5827521377839E-03	7.5827521377839E-03
7.6108839769251E-03	7.6108839769251E-03	7.6108839769251E-03
7.6390695877532E-03	7.6390695877532E-03	7.6390695877532E-03
7.6673090705174E-03	7.6673090705174E-03	7.6673090705174E-03
7.6956025256440E-03	7.6956025256440E-03	7.6956025256440E-03
7.7239500537364E-03	7.7239500537364E-03	7.7239500537364E-03
7.7523517555756E-03	7.7523517555756E-03	7.7523517555756E-03
7.7808077321201E-03	7.7808077321201E-03	7.7808077321201E-03
7.8093180845068E-03	7.8093180845068E-03	7.8093180845068E-03
7.8378829140508E-03	7.8378829140508E-03	7.8378829140508E-03
7.8665023222455E-03	7.8665023222455E-03	7.8665023222455E-03
7.8951764107635E-03	7.8951764107635E-03	7.8951764107635E-03
7.9239052814565E-03	7.9239052814565E-03	7.9239052814565E-03
7.9526890363555E-03	7.9526890363555E-03	7.9526890363555E-03
7.9815277776711E-03	7.9815277776711E-03	7.9815277776711E-03
8.0104216077941E-03	8.0104216077941E-03	8.0104216077941E-03
8.0393706292954E-03	8.0393706292954E-03	8.0393706292954E-03
8.0683749449264E-03	8.0683749449264E-03	8.0683749449264E-03
