Addons/Fimic/Filmic Resolve - Base Encoding to Scene Linear.cube
# Filmic Log BT.709 to Scene Linear		
LUT_1D_SIZE 4096		
LUT_1D_INPUT_RANGE 0.000000000 1.000000000		
1.7578125000000E-04	1.7578125000000E-04	1.7578125000000E-04
1.7627287579246E-04	1.7627287579246E-04	1.7627287579246E-04
1.7676587656615E-04	1.7676587656615E-04	1.7676587656615E-04
1.7726025616663E-04	1.7726025616663E-04	1.7726025616663E-04
1.7775601845020E-04	1.7775601845020E-04	1.7775601845020E-04
1.7825316728397E-04	1.7825316728397E-04	1.7825316728397E-04
1.7875170654583E-04	1.7875170654583E-04	1.7875170654583E-04
1.7925164012455E-04	1.7925164012455E-04	1.7925164012455E-04
1.7975297191975E-04	1.7975297191975E-04	1.7975297191975E-04
1.8025570584198E-04	1.8025570584198E-04	1.8025570584198E-04
1.8075984581271E-04	1.8075984581271E-04	1.8075984581271E-04
1.8126539576439E-04	1.8126539576439E-04	1.8126539576439E-04
1.8177235964044E-04	1.8177235964044E-04	1.8177235964044E-04
1.8228074139535E-04	1.8228074139535E-04	1.8228074139535E-04
1.8279054499465E-04	1.8279054499465E-04	1.8279054499465E-04
1.8330177441495E-04	1.8330177441495E-04	1.8330177441495E-04
1.8381443364399E-04	1.8381443364399E-04	1.8381443364399E-04
1.8432852668068E-04	1.8432852668068E-04	1.8432852668068E-04
1.8484405753510E-04	1.8484405753510E-04	1.8484405753510E-04
1.8536103022853E-04	1.8536103022853E-04	1.8536103022853E-04
1.8587944879352E-04	1.8587944879352E-04	1.8587944879352E-04
1.8639931727389E-04	1.8639931727389E-04	1.8639931727389E-04
1.8692063972477E-04	1.8692063972477E-04	1.8692063972477E-04
1.8744342021263E-04	1.8744342021263E-04	1.8744342021263E-04
1.8796766281531E-04	1.8796766281531E-04	1.8796766281531E-04
1.8849337162207E-04	1.8849337162207E-04	1.8849337162207E-04
1.8902055073359E-04	1.8902055073359E-04	1.8902055073359E-04
1.8954920426203E-04	1.8954920426203E-04	1.8954920426203E-04
1.9007933633104E-04	1.9007933633104E-04	1.9007933633104E-04
1.9061095107581E-04	1.9061095107581E-04	1.9061095107581E-04
1.9114405264309E-04	1.9114405264309E-04	1.9114405264309E-04
1.9167864519124E-04	1.9167864519124E-04	1.9167864519124E-04
1.9221473289024E-04	1.9221473289024E-04	1.9221473289024E-04
1.9275231992173E-04	1.9275231992173E-04	1.9275231992173E-04
1.9329141047906E-04	1.9329141047906E-04	1.9329141047906E-04
1.9383200876728E-04	1.9383200876728E-04	1.9383200876728E-04
1.9437411900324E-04	1.9437411900324E-04	1.9437411900324E-04
1.9491774541555E-04	1.9491774541555E-04	1.9491774541555E-04
1.9546289224466E-04	1.9546289224466E-04	1.9546289224466E-04
1.9600956374287E-04	1.9600956374287E-04	1.9600956374287E-04
1.9655776417440E-04	1.9655776417440E-04	1.9655776417440E-04
1.9710749781537E-04	1.9710749781537E-04	1.9710749781537E-04
1.9765876895386E-04	1.9765876895386E-04	1.9765876895386E-04
1.9821158188996E-04	1.9821158188996E-04	1.9821158188996E-04
1.9876594093577E-04	1.9876594093577E-04	1.9876594093577E-04
1.9932185041546E-04	1.9932185041546E-04	1.9932185041546E-04
1.9987931466529E-04	1.9987931466529E-04	1.9987931466529E-04
2.0043833803364E-04	2.0043833803364E-04	2.0043833803364E-04
2.0099892488107E-04	2.0099892488107E-04	2.0099892488107E-04
2.0156107958032E-04	2.0156107958032E-04	2.0156107958032E-04
2.0212480651638E-04	2.0212480651638E-04	2.0212480651638E-04
2.0269011008646E-04	2.0269011008646E-04	2.0269011008646E-04
2.0325699470012E-04	2.0325699470012E-04	2.0325699470012E-04
2.0382546477922E-04	2.0382546477922E-04	2.0382546477922E-04
2.0439552475801E-04	2.0439552475801E-04	2.0439552475801E-04
2.0496717908311E-04	2.0496717908311E-04	2.0496717908311E-04
2.0554043221360E-04	2.0554043221360E-04	2.0554043221360E-04
2.0611528862104E-04	2.0611528862104E-04	2.0611528862104E-04
2.0669175278947E-04	2.0669175278947E-04	2.0669175278947E-04
2.0726982921548E-04	2.0726982921548E-04	2.0726982921548E-04
2.0784952240824E-04	2.0784952240824E-04	2.0784952240824E-04
2.0843083688955E-04	2.0843083688955E-04	2.0843083688955E-04
2.0901377719381E-04	2.0901377719381E-04	2.0901377719381E-04
2.0959834786814E-04	2.0959834786814E-04	2.0959834786814E-04
2.1018455347237E-04	2.1018455347237E-04	2.1018455347237E-04
2.1077239857908E-04	2.1077239857908E-04	2.1077239857908E-04
2.1136188777364E-04	2.1136188777364E-04	2.1136188777364E-04
2.1195302565423E-04	2.1195302565423E-04	2.1195302565423E-04
2.1254581683190E-04	2.1254581683190E-04	2.1254581683190E-04
2.1314026593062E-04	2.1314026593062E-04	2.1314026593062E-04
2.1373637758726E-04	2.1373637758726E-04	2.1373637758726E-04
2.1433415645166E-04	2.1433415645166E-04	2.1433415645166E-04
2.1493360718669E-04	2.1493360718669E-04	2.1493360718669E-04
2.1553473446824E-04	2.1553473446824E-04	2.1553473446824E-04
2.1613754298527E-04	2.1613754298527E-04	2.1613754298527E-04
2.1674203743989E-04	2.1674203743989E-04	2.1674203743989E-04
2.1734822254732E-04	2.1734822254732E-04	2.1734822254732E-04
2.1795610303599E-04	2.1795610303599E-04	2.1795610303599E-04
2.1856568364756E-04	2.1856568364756E-04	2.1856568364756E-04
2.1917696913692E-04	2.1917696913692E-04	2.1917696913692E-04
2.1978996427230E-04	2.1978996427230E-04	2.1978996427230E-04
2.2040467383524E-04	2.2040467383524E-04	2.2040467383524E-04
2.2102110262065E-04	2.2102110262065E-04	2.2102110262065E-04
2.2163925543687E-04	2.2163925543687E-04	2.2163925543687E-04
2.2225913710567E-04	2.2225913710567E-04	2.2225913710567E-04
2.2288075246232E-04	2.2288075246232E-04	2.2288075246232E-04
2.2350410635560E-04	2.2350410635560E-04	2.2350410635560E-04
2.2412920364786E-04	2.2412920364786E-04	2.2412920364786E-04
2.2475604921505E-04	2.2475604921505E-04	2.2475604921505E-04
2.2538464794674E-04	2.2538464794674E-04	2.2538464794674E-04
2.2601500474620E-04	2.2601500474620E-04	2.2601500474620E-04
2.2664712453040E-04	2.2664712453040E-04	2.2664712453040E-04
2.2728101223006E-04	2.2728101223006E-04	2.2728101223006E-04
2.2791667278969E-04	2.2791667278969E-04	2.2791667278969E-04
2.2855411116765E-04	2.2855411116765E-04	2.2855411116765E-04
2.2919333233613E-04	2.2919333233613E-04	2.2919333233613E-04
2.2983434128126E-04	2.2983434128126E-04	2.2983434128126E-04
2.3047714300310E-04	2.3047714300310E-04	2.3047714300310E-04
2.3112174251569E-04	2.3112174251569E-04	2.3112174251569E-04
2.3176814484710E-04	2.3176814484710E-04	2.3176814484710E-04
2.3241635503947E-04	2.3241635503947E-04	2.3241635503947E-04
2.3306637814903E-04	2.3306637814903E-04	2.3306637814903E-04
2.3371821924615E-04	2.3371821924615E-04	2.3371821924615E-04
2.3437188341539E-04	2.3437188341539E-04	2.3437188341539E-04
2.3502737575552E-04	2.3502737575552E-04	2.3502737575552E-04
2.3568470137959E-04	2.3568470137959E-04	2.3568470137959E-04
2.3634386541492E-04	2.3634386541492E-04	2.3634386541492E-04
2.3700487300320E-04	2.3700487300320E-04	2.3700487300320E-04
2.3766772930049E-04	2.3766772930049E-04	2.3766772930049E-04
2.3833243947725E-04	2.3833243947725E-04	2.3833243947725E-04
2.3899900871843E-04	2.3899900871843E-04	2.3899900871843E-04
2.3966744222348E-04	2.3966744222348E-04	2.3966744222348E-04
2.4033774520636E-04	2.4033774520636E-04	2.4033774520636E-04
2.4100992289565E-04	2.4100992289565E-04	2.4100992289565E-04
2.4168398053452E-04	2.4168398053452E-04	2.4168398053452E-04
2.4235992338085E-04	2.4235992338085E-04	2.4235992338085E-04
2.4303775670717E-04	2.4303775670717E-04	2.4303775670717E-04
2.4371748580079E-04	2.4371748580079E-04	2.4371748580079E-04
2.4439911596381E-04	2.4439911596381E-04	2.4439911596381E-04
2.4508265251314E-04	2.4508265251314E-04	2.4508265251314E-04
2.4576810078057E-04	2.4576810078057E-04	2.4576810078057E-04
2.4645546611281E-04	2.4645546611281E-04	2.4645546611281E-04
2.4714475387151E-04	2.4714475387151E-04	2.4714475387151E-04
2.4783596943332E-04	2.4783596943332E-04	2.4783596943332E-04
2.4852911818993E-04	2.4852911818993E-04	2.4852911818993E-04
2.4922420554810E-04	2.4922420554810E-04	2.4922420554810E-04
2.4992123692974E-04	2.4992123692974E-04	2.4992123692974E-04
2.5062021777188E-04	2.5062021777188E-04	2.5062021777188E-04
2.5132115352679E-04	2.5132115352679E-04	2.5132115352679E-04
2.5202404966198E-04	2.5202404966198E-04	2.5202404966198E-04
2.5272891166026E-04	2.5272891166026E-04	2.5272891166026E-04
2.5343574501974E-04	2.5343574501974E-04	2.5343574501974E-04
2.5414455525396E-04	2.5414455525396E-04	2.5414455525396E-04
2.5485534789183E-04	2.5485534789183E-04	2.5485534789183E-04
2.5556812847776E-04	2.5556812847776E-04	2.5556812847776E-04
2.5628290257164E-04	2.5628290257164E-04	2.5628290257164E-04
2.5699967574893E-04	2.5699967574893E-04	2.5699967574893E-04
2.5771845360067E-04	2.5771845360067E-04	2.5771845360067E-04
2.5843924173355E-04	2.5843924173355E-04	2.5843924173355E-04
2.5916204576993E-04	2.5916204576993E-04	2.5916204576993E-04
2.5988687134790E-04	2.5988687134790E-04	2.5988687134790E-04
2.6061372412131E-04	2.6061372412131E-04	2.6061372412131E-04
2.6134260975983E-04	2.6134260975983E-04	2.6134260975983E-04
2.6207353394900E-04	2.6207353394900E-04	2.6207353394900E-04
2.6280650239023E-04	2.6280650239023E-04	2.6280650239023E-04
2.6354152080090E-04	2.6354152080090E-04	2.6354152080090E-04
2.6427859491438E-04	2.6427859491438E-04	2.6427859491438E-04
2.6501773048006E-04	2.6501773048006E-04	2.6501773048006E-04
2.6575893326342E-04	2.6575893326342E-04	2.6575893326342E-04
2.6650220904607E-04	2.6650220904607E-04	2.6650220904607E-04
2.6724756362578E-04	2.6724756362578E-04	2.6724756362578E-04
2.6799500281654E-04	2.6799500281654E-04	2.6799500281654E-04
2.6874453244859E-04	2.6874453244859E-04	2.6874453244859E-04
2.6949615836850E-04	2.6949615836850E-04	2.6949615836850E-04
2.7024988643917E-04	2.7024988643917E-04	2.7024988643917E-04
2.7100572253991E-04	2.7100572253991E-04	2.7100572253991E-04
2.7176367256646E-04	2.7176367256646E-04	2.7176367256646E-04
2.7252374243106E-04	2.7252374243106E-04	2.7252374243106E-04
2.7328593806249E-04	2.7328593806249E-04	2.7328593806249E-04
2.7405026540609E-04	2.7405026540609E-04	2.7405026540609E-04
2.7481673042386E-04	2.7481673042386E-04	2.7481673042386E-04
2.7558533909444E-04	2.7558533909444E-04	2.7558533909444E-04
2.7635609741322E-04	2.7635609741322E-04	2.7635609741322E-04
2.7712901139233E-04	2.7712901139233E-04	2.7712901139233E-04
2.7790408706075E-04	2.7790408706075E-04	2.7790408706075E-04
2.7868133046430E-04	2.7868133046430E-04	2.7868133046430E-04
2.7946074766569E-04	2.7946074766569E-04	2.7946074766569E-04
2.8024234474463E-04	2.8024234474463E-04	2.8024234474463E-04
2.8102612779781E-04	2.8102612779781E-04	2.8102612779781E-04
2.8181210293896E-04	2.8181210293896E-04	2.8181210293896E-04
2.8260027629892E-04	2.8260027629892E-04	2.8260027629892E-04
2.8339065402570E-04	2.8339065402570E-04	2.8339065402570E-04
2.8418324228446E-04	2.8418324228446E-04	2.8418324228446E-04
2.8497804725764E-04	2.8497804725764E-04	2.8497804725764E-04
2.8577507514496E-04	2.8577507514496E-04	2.8577507514496E-04
2.8657433216346E-04	2.8657433216346E-04	2.8657433216346E-04
2.8737582454759E-04	2.8737582454759E-04	2.8737582454759E-04
2.8817955854923E-04	2.8817955854923E-04	2.8817955854923E-04
2.8898554043776E-04	2.8898554043776E-04	2.8898554043776E-04
2.8979377650006E-04	2.8979377650006E-04	2.8979377650006E-04
2.9060427304063E-04	2.9060427304063E-04	2.9060427304063E-04
2.9141703638158E-04	2.9141703638158E-04	2.9141703638158E-04
2.9223207286270E-04	2.9223207286270E-04	2.9223207286270E-04
2.9304938884153E-04	2.9304938884153E-04	2.9304938884153E-04
2.9386899069337E-04	2.9386899069337E-04	2.9386899069337E-04
2.9469088481136E-04	2.9469088481136E-04	2.9469088481136E-04
2.9551507760653E-04	2.9551507760653E-04	2.9551507760653E-04
2.9634157550783E-04	2.9634157550783E-04	2.9634157550783E-04
2.9717038496218E-04	2.9717038496218E-04	2.9717038496218E-04
2.9800151243455E-04	2.9800151243455E-04	2.9800151243455E-04
2.9883496440798E-04	2.9883496440798E-04	2.9883496440798E-04
2.9967074738365E-04	2.9967074738365E-04	2.9967074738365E-04
3.0050886788091E-04	3.0050886788091E-04	3.0050886788091E-04
3.0134933243735E-04	3.0134933243735E-04	3.0134933243735E-04
3.0219214760886E-04	3.0219214760886E-04	3.0219214760886E-04
3.0303731996964E-04	3.0303731996964E-04	3.0303731996964E-04
3.0388485611229E-04	3.0388485611229E-04	3.0388485611229E-04
3.0473476264784E-04	3.0473476264784E-04	3.0473476264784E-04
3.0558704620582E-04	3.0558704620582E-04	3.0558704620582E-04
3.0644171343430E-04	3.0644171343430E-04	3.0644171343430E-04
3.0729877099994E-04	3.0729877099994E-04	3.0729877099994E-04
3.0815822558804E-04	3.0815822558804E-04	3.0815822558804E-04
3.0902008390261E-04	3.0902008390261E-04	3.0902008390261E-04
3.0988435266640E-04	3.0988435266640E-04	3.0988435266640E-04
3.1075103862096E-04	3.1075103862096E-04	3.1075103862096E-04
3.1162014852670E-04	3.1162014852670E-04	3.1162014852670E-04
3.1249168916295E-04	3.1249168916295E-04	3.1249168916295E-04
3.1336566732798E-04	3.1336566732798E-04	3.1336566732798E-04
3.1424208983909E-04	3.1424208983909E-04	3.1424208983909E-04
3.1512096353262E-04	3.1512096353262E-04	3.1512096353262E-04
3.1600229526406E-04	3.1600229526406E-04	3.1600229526406E-04
3.1688609190806E-04	3.1688609190806E-04	3.1688609190806E-04
3.1777236035850E-04	3.1777236035850E-04	3.1777236035850E-04
3.1866110752853E-04	3.1866110752853E-04	3.1866110752853E-04
3.1955234035066E-04	3.1955234035066E-04	3.1955234035066E-04
3.2044606577676E-04	3.2044606577676E-04	3.2044606577676E-04
3.2134229077817E-04	3.2134229077817E-04	3.2134229077817E-04
3.2224102234569E-04	3.2224102234569E-04	3.2224102234569E-04
3.2314226748972E-04	3.2314226748972E-04	3.2314226748972E-04
3.2404603324023E-04	3.2404603324023E-04	3.2404603324023E-04
3.2495232664687E-04	3.2495232664687E-04	3.2495232664687E-04
3.2586115477899E-04	3.2586115477899E-04	3.2586115477899E-04
3.2677252472572E-04	3.2677252472572E-04	3.2677252472572E-04
3.2768644359604E-04	3.2768644359604E-04	3.2768644359604E-04
3.2860291851876E-04	3.2860291851876E-04	3.2860291851876E-04
3.2952195664269E-04	3.2952195664269E-04	3.2952195664269E-04
3.3044356513658E-04	3.3044356513658E-04	3.3044356513658E-04
3.3136775118927E-04	3.3136775118927E-04	3.3136775118927E-04
3.3229452200967E-04	3.3229452200967E-04	3.3229452200967E-04
3.3322388482688E-04	3.3322388482688E-04	3.3322388482688E-04
3.3415584689021E-04	3.3415584689021E-04	3.3415584689021E-04
3.3509041546924E-04	3.3509041546924E-04	3.3509041546924E-04
3.3602759785388E-04	3.3602759785388E-04	3.3602759785388E-04
3.3696740135444E-04	3.3696740135444E-04	3.3696740135444E-04
3.3790983330167E-04	3.3790983330167E-04	3.3790983330167E-04
3.3885490104682E-04	3.3885490104682E-04	3.3885490104682E-04
3.3980261196169E-04	3.3980261196169E-04	3.3980261196169E-04
3.4075297343873E-04	3.4075297343873E-04	3.4075297343873E-04
3.4170599289103E-04	3.4170599289103E-04	3.4170599289103E-04
3.4266167775243E-04	3.4266167775243E-04	3.4266167775243E-04
3.4362003547756E-04	3.4362003547756E-04	3.4362003547756E-04
3.4458107354190E-04	3.4458107354190E-04	3.4458107354190E-04
3.4554479944182E-04	3.4554479944182E-04	3.4554479944182E-04
3.4651122069469E-04	3.4651122069469E-04	3.4651122069469E-04
3.4748034483888E-04	3.4748034483888E-04	3.4748034483888E-04
3.4845217943384E-04	3.4845217943384E-04	3.4845217943384E-04
3.4942673206018E-04	3.4942673206018E-04	3.4942673206018E-04
3.5040401031969E-04	3.5040401031969E-04	3.5040401031969E-04
3.5138402183545E-04	3.5138402183545E-04	3.5138402183545E-04
3.5236677425183E-04	3.5236677425183E-04	3.5236677425183E-04
3.5335227523460E-04	3.5335227523460E-04	3.5335227523460E-04
3.5434053247097E-04	3.5434053247097E-04	3.5434053247097E-04
3.5533155366962E-04	3.5533155366962E-04	3.5533155366962E-04
3.5632534656084E-04	3.5632534656084E-04	3.5632534656084E-04
3.5732191889649E-04	3.5732191889649E-04	3.5732191889649E-04
3.5832127845014E-04	3.5832127845014E-04	3.5832127845014E-04
3.5932343301710E-04	3.5932343301710E-04	3.5932343301710E-04
3.6032839041447E-04	3.6032839041447E-04	3.6032839041447E-04
3.6133615848122E-04	3.6133615848122E-04	3.6133615848122E-04
3.6234674507824E-04	3.6234674507824E-04	3.6234674507824E-04
3.6336015808841E-04	3.6336015808841E-04	3.6336015808841E-04
3.6437640541666E-04	3.6437640541666E-04	3.6437640541666E-04
3.6539549499001E-04	3.6539549499001E-04	3.6539549499001E-04
3.6641743475768E-04	3.6641743475768E-04	3.6641743475768E-04
3.6744223269110E-04	3.6744223269110E-04	3.6744223269110E-04
3.6846989678400E-04	3.6846989678400E-04	3.6846989678400E-04
3.6950043505246E-04	3.6950043505246E-04	3.6950043505246E-04
3.7053385553500E-04	3.7053385553500E-04	3.7053385553500E-04
3.7157016629261E-04	3.7157016629261E-04	3.7157016629261E-04
3.7260937540881E-04	3.7260937540881E-04	3.7260937540881E-04
3.7365149098976E-04	3.7365149098976E-04	3.7365149098976E-04
3.7469652116426E-04	3.7469652116426E-04	3.7469652116426E-04
3.7574447408386E-04	3.7574447408386E-04	3.7574447408386E-04
3.7679535792292E-04	3.7679535792292E-04	3.7679535792292E-04
3.7784918087863E-04	3.7784918087863E-04	3.7784918087863E-04
3.7890595117113E-04	3.7890595117113E-04	3.7890595117113E-04
3.7996567704356E-04	3.7996567704356E-04	3.7996567704356E-04
3.8102836676208E-04	3.8102836676208E-04	3.8102836676208E-04
3.8209402861600E-04	3.8209402861600E-04	3.8209402861600E-04
3.8316267091779E-04	3.8316267091779E-04	3.8316267091779E-04
3.8423430200319E-04	3.8423430200319E-04	3.8423430200319E-04
3.8530893023124E-04	3.8530893023124E-04	3.8530893023124E-04
3.8638656398437E-04	3.8638656398437E-04	3.8638656398437E-04
3.8746721166843E-04	3.8746721166843E-04	3.8746721166843E-04
3.8855088171281E-04	3.8855088171281E-04	3.8855088171281E-04
3.8963758257046E-04	3.8963758257046E-04	3.8963758257046E-04
3.9072732271796E-04	3.9072732271796E-04	3.9072732271796E-04
3.9182011065562E-04	3.9182011065562E-04	3.9182011065562E-04
3.9291595490751E-04	3.9291595490751E-04	3.9291595490751E-04
3.9401486402154E-04	3.9401486402154E-04	3.9401486402154E-04
3.9511684656954E-04	3.9511684656954E-04	3.9511684656954E-04
3.9622191114730E-04	3.9622191114730E-04	3.9622191114730E-04
3.9733006637465E-04	3.9733006637465E-04	3.9733006637465E-04
3.9844132089553E-04	3.9844132089553E-04	3.9844132089553E-04
3.9955568337807E-04	3.9955568337807E-04	3.9955568337807E-04
4.0067316251462E-04	4.0067316251462E-04	4.0067316251462E-04
4.0179376702186E-04	4.0179376702186E-04	4.0179376702186E-04
4.0291750564084E-04	4.0291750564084E-04	4.0291750564084E-04
4.0404438713706E-04	4.0404438713706E-04	4.0404438713706E-04
4.0517442030052E-04	4.0517442030052E-04	4.0517442030052E-04
4.0630761394583E-04	4.0630761394583E-04	4.0630761394583E-04
4.0744397691223E-04	4.0744397691223E-04	4.0744397691223E-04
4.0858351806371E-04	4.0858351806371E-04	4.0858351806371E-04
4.0972624628901E-04	4.0972624628901E-04	4.0972624628901E-04
4.1087217050176E-04	4.1087217050176E-04	4.1087217050176E-04
4.1202129964052E-04	4.1202129964052E-04	4.1202129964052E-04
4.1317364266883E-04	4.1317364266883E-04	4.1317364266883E-04
4.1432920857533E-04	4.1432920857533E-04	4.1432920857533E-04
4.1548800637375E-04	4.1548800637375E-04	4.1548800637375E-04
4.1665004510309E-04	4.1665004510309E-04	4.1665004510309E-04
4.1781533382758E-04	4.1781533382758E-04	4.1781533382758E-04
4.1898388163683E-04	4.1898388163683E-04	4.1898388163683E-04
4.2015569764586E-04	4.2015569764586E-04	4.2015569764586E-04
4.2133079099518E-04	4.2133079099518E-04	4.2133079099518E-04
4.2250917085089E-04	4.2250917085089E-04	4.2250917085089E-04
4.2369084640469E-04	4.2369084640469E-04	4.2369084640469E-04
4.2487582687400E-04	4.2487582687400E-04	4.2487582687400E-04
4.2606412150203E-04	4.2606412150203E-04	4.2606412150203E-04
4.2725573955783E-04	4.2725573955783E-04	4.2725573955783E-04
4.2845069033639E-04	4.2845069033639E-04	4.2845069033639E-04
4.2964898315867E-04	4.2964898315867E-04	4.2964898315867E-04
4.3085062737172E-04	4.3085062737172E-04	4.3085062737172E-04
4.3205563234872E-04	4.3205563234872E-04	4.3205563234872E-04
4.3326400748907E-04	4.3326400748907E-04	4.3326400748907E-04
4.3447576221846E-04	4.3447576221846E-04	4.3447576221846E-04
4.3569090598894E-04	4.3569090598894E-04	4.3569090598894E-04
4.3690944827900E-04	4.3690944827900E-04	4.3690944827900E-04
4.3813139859362E-04	4.3813139859362E-04	4.3813139859362E-04
4.3935676646440E-04	4.3935676646440E-04	4.3935676646440E-04
4.4058556144956E-04	4.4058556144956E-04	4.4058556144956E-04
4.4181779313408E-04	4.4181779313408E-04	4.4181779313408E-04
4.4305347112972E-04	4.4305347112972E-04	4.4305347112972E-04
4.4429260507516E-04	4.4429260507516E-04	4.4429260507516E-04
4.4553520463600E-04	4.4553520463600E-04	4.4553520463600E-04
4.4678127950489E-04	4.4678127950489E-04	4.4678127950489E-04
4.4803083940160E-04	4.4803083940160E-04	4.4803083940160E-04
4.4928389407305E-04	4.4928389407305E-04	4.4928389407305E-04
4.5054045329346E-04	4.5054045329346E-04	4.5054045329346E-04
4.5180052686437E-04	4.5180052686437E-04	4.5180052686437E-04
4.5306412461471E-04	4.5306412461471E-04	4.5306412461471E-04
4.5433125640094E-04	4.5433125640094E-04	4.5433125640094E-04
4.5560193210707E-04	4.5560193210707E-04	4.5560193210707E-04
4.5687616164474E-04	4.5687616164474E-04	4.5687616164474E-04
4.5815395495332E-04	4.5815395495332E-04	4.5815395495332E-04
4.5943532199999E-04	4.5943532199999E-04	4.5943532199999E-04
4.6072027277979E-04	4.6072027277979E-04	4.6072027277979E-04
4.6200881731572E-04	4.6200881731572E-04	4.6200881731572E-04
4.6330096565883E-04	4.6330096565883E-04	4.6330096565883E-04
4.6459672788824E-04	4.6459672788824E-04	4.6459672788824E-04
4.6589611411130E-04	4.6589611411130E-04	4.6589611411130E-04
4.6719913446360E-04	4.6719913446360E-04	4.6719913446360E-04
4.6850579910911E-04	4.6850579910911E-04	4.6850579910911E-04
4.6981611824018E-04	4.6981611824018E-04	4.6981611824018E-04
4.7113010207770E-04	4.7113010207770E-04	4.7113010207770E-04
4.7244776087115E-04	4.7244776087115E-04	4.7244776087115E-04
4.7376910489865E-04	4.7376910489865E-04	4.7376910489865E-04
4.7509414446708E-04	4.7509414446708E-04	4.7509414446708E-04
4.7642288991215E-04	4.7642288991215E-04	4.7642288991215E-04
4.7775535159847E-04	4.7775535159847E-04	4.7775535159847E-04
4.7909153991965E-04	4.7909153991965E-04	4.7909153991965E-04
4.8043146529834E-04	4.8043146529834E-04	4.8043146529834E-04
4.8177513818637E-04	4.8177513818637E-04	4.8177513818637E-04
4.8312256906480E-04	4.8312256906480E-04	4.8312256906480E-04
4.8447376844398E-04	4.8447376844398E-04	4.8447376844398E-04
4.8582874686367E-04	4.8582874686367E-04	4.8582874686367E-04
4.8718751489312E-04	4.8718751489312E-04	4.8718751489312E-04
4.8855008313112E-04	4.8855008313112E-04	4.8855008313112E-04
4.8991646220611E-04	4.8991646220611E-04	4.8991646220611E-04
4.9128666277625E-04	4.9128666277625E-04	4.9128666277625E-04
4.9266069552953E-04	4.9266069552953E-04	4.9266069552953E-04
4.9403857118380E-04	4.9403857118380E-04	4.9403857118380E-04
4.9542030048692E-04	4.9542030048692E-04	4.9542030048692E-04
4.9680589421678E-04	4.9680589421678E-04	4.9680589421678E-04
4.9819536318144E-04	4.9819536318144E-04	4.9819536318144E-04
4.9958871821915E-04	4.9958871821915E-04	4.9958871821915E-04
5.0098597019852E-04	5.0098597019852E-04	5.0098597019852E-04
5.0238713001852E-04	5.0238713001852E-04	5.0238713001852E-04
5.0379220860863E-04	5.0379220860863E-04	5.0379220860863E-04
5.0520121692887E-04	5.0520121692887E-04	5.0520121692887E-04
5.0661416596993E-04	5.0661416596993E-04	5.0661416596993E-04
5.0803106675324E-04	5.0803106675324E-04	5.0803106675324E-04
5.0945193033104E-04	5.0945193033104E-04	5.0945193033104E-04
5.1087676778651E-04	5.1087676778651E-04	5.1087676778651E-04
5.1230559023380E-04	5.1230559023380E-04	5.1230559023380E-04
5.1373840881814E-04	5.1373840881814E-04	5.1373840881814E-04
5.1517523471597E-04	5.1517523471597E-04	5.1517523471597E-04
5.1661607913494E-04	5.1661607913494E-04	5.1661607913494E-04
5.1806095331408E-04	5.1806095331408E-04	5.1806095331408E-04
5.1950986852384E-04	5.1950986852384E-04	5.1950986852384E-04
5.2096283606619E-04	5.2096283606619E-04	5.2096283606619E-04
5.2241986727471E-04	5.2241986727471E-04	5.2241986727471E-04
5.2388097351468E-04	5.2388097351468E-04	5.2388097351468E-04
5.2534616618318E-04	5.2534616618318E-04	5.2534616618318E-04
5.2681545670913E-04	5.2681545670913E-04	5.2681545670913E-04
5.2828885655345E-04	5.2828885655345E-04	5.2828885655345E-04
5.2976637720910E-04	5.2976637720910E-04	5.2976637720910E-04
5.3124803020117E-04	5.3124803020117E-04	5.3124803020117E-04
5.3273382708702E-04	5.3273382708702E-04	5.3273382708702E-04
