Addons/Fimic/Filmic Resolve - Medium High Contrast.cube
# Filmic Medium High Contrast		
LUT_1D_SIZE 4096		
LUT_1D_INPUT_RANGE 0.000000000 1.000000000		
0.0000000000000E+00	0.0000000000000E+00	0.0000000000000E+00
6.1905883461422E-06	6.1905883461422E-06	6.1905883461422E-06
1.2395818351271E-05	1.2395818351271E-05	1.2395818351271E-05
1.8615724480636E-05	1.8615724480636E-05	1.8615724480636E-05
2.4850341279825E-05	2.4850341279825E-05	2.4850341279825E-05
3.1099703374958E-05	3.1099703374958E-05	3.1099703374958E-05
3.7363845472860E-05	3.7363845472860E-05	3.7363845472860E-05
4.3642802361259E-05	4.3642802361259E-05	4.3642802361259E-05
4.9936608908955E-05	4.9936608908955E-05	4.9936608908955E-05
5.6245300066019E-05	5.6245300066019E-05	5.6245300066019E-05
6.2568910863968E-05	6.2568910863968E-05	6.2568910863968E-05
6.8907476415959E-05	6.8907476415959E-05	6.8907476415959E-05
7.5261031916971E-05	7.5261031916971E-05	7.5261031916971E-05
8.1629612643992E-05	8.1629612643992E-05	8.1629612643992E-05
8.8013253956208E-05	8.8013253956208E-05	8.8013253956208E-05
9.4411991295188E-05	9.4411991295188E-05	9.4411991295188E-05
1.0082586018508E-04	1.0082586018508E-04	1.0082586018508E-04
1.0725489623277E-04	1.0725489623277E-04	1.0725489623277E-04
1.1369913512813E-04	1.1369913512813E-04	1.1369913512813E-04
1.2015861264415E-04	1.2015861264415E-04	1.2015861264415E-04
1.2663336463714E-04	1.2663336463714E-04	1.2663336463714E-04
1.3312342704695E-04	1.3312342704695E-04	1.3312342704695E-04
1.3962883589712E-04	1.3962883589712E-04	1.3962883589712E-04
1.4614962729511E-04	1.4614962729511E-04	1.4614962729511E-04
1.5268583743244E-04	1.5268583743244E-04	1.5268583743244E-04
1.5923750258495E-04	1.5923750258495E-04	1.5923750258495E-04
1.6580465911293E-04	1.6580465911293E-04	1.6580465911293E-04
1.7238734346136E-04	1.7238734346136E-04	1.7238734346136E-04
1.7898559216004E-04	1.7898559216004E-04	1.7898559216004E-04
1.8559944182387E-04	1.8559944182387E-04	1.8559944182387E-04
1.9222892915298E-04	1.9222892915298E-04	1.9222892915298E-04
1.9887409093292E-04	1.9887409093292E-04	1.9887409093292E-04
2.0553496403492E-04	2.0553496403492E-04	2.0553496403492E-04
2.1221158541601E-04	2.1221158541601E-04	2.1221158541601E-04
2.1890399211926E-04	2.1890399211926E-04	2.1890399211926E-04
2.2561222127395E-04	2.2561222127395E-04	2.2561222127395E-04
2.3233631009579E-04	2.3233631009579E-04	2.3233631009579E-04
2.3907629588712E-04	2.3907629588712E-04	2.3907629588712E-04
2.4583221603707E-04	2.4583221603707E-04	2.4583221603707E-04
2.5260410802179E-04	2.5260410802179E-04	2.5260410802179E-04
2.5939200940464E-04	2.5939200940464E-04	2.5939200940464E-04
2.6619595783638E-04	2.6619595783638E-04	2.6619595783638E-04
2.7301599105541E-04	2.7301599105541E-04	2.7301599105541E-04
2.7985214688788E-04	2.7985214688788E-04	2.7985214688788E-04
2.8670446324800E-04	2.8670446324800E-04	2.8670446324800E-04
2.9357297813814E-04	2.9357297813814E-04	2.9357297813814E-04
3.0045772964912E-04	3.0045772964912E-04	3.0045772964912E-04
3.0735875596034E-04	3.0735875596034E-04	3.0735875596034E-04
3.1427609534001E-04	3.1427609534001E-04	3.1427609534001E-04
3.2120978614537E-04	3.2120978614537E-04	3.2120978614537E-04
3.2815986682285E-04	3.2815986682285E-04	3.2815986682285E-04
3.3512637590831E-04	3.3512637590831E-04	3.3512637590831E-04
3.4210935202723E-04	3.4210935202723E-04	3.4210935202723E-04
3.4910883389492E-04	3.4910883389492E-04	3.4910883389492E-04
3.5612486031669E-04	3.5612486031669E-04	3.5612486031669E-04
3.6315747018811E-04	3.6315747018811E-04	3.6315747018811E-04
3.7020670249519E-04	3.7020670249519E-04	3.7020670249519E-04
3.7727259631455E-04	3.7727259631455E-04	3.7727259631455E-04
3.8435519081369E-04	3.8435519081369E-04	3.8435519081369E-04
3.9145452525116E-04	3.9145452525116E-04	3.9145452525116E-04
3.9857063897676E-04	3.9857063897676E-04	3.9857063897676E-04
4.0570357143177E-04	4.0570357143177E-04	4.0570357143177E-04
4.1285336214914E-04	4.1285336214914E-04	4.1285336214914E-04
4.2002005075371E-04	4.2002005075371E-04	4.2002005075371E-04
4.2720367696241E-04	4.2720367696241E-04	4.2720367696241E-04
4.3440428058447E-04	4.3440428058447E-04	4.3440428058447E-04
4.4162190152165E-04	4.4162190152165E-04	4.4162190152165E-04
4.4885657976840E-04	4.4885657976840E-04	4.4885657976840E-04
4.5610835541213E-04	4.5610835541213E-04	4.5610835541213E-04
4.6337726863338E-04	4.6337726863338E-04	4.6337726863338E-04
4.7066335970606E-04	4.7066335970606E-04	4.7066335970606E-04
4.7796666899762E-04	4.7796666899762E-04	4.7796666899762E-04
4.8528723696931E-04	4.8528723696931E-04	4.8528723696931E-04
4.9262510417637E-04	4.9262510417637E-04	4.9262510417637E-04
4.9998031126823E-04	4.9998031126823E-04	4.9998031126823E-04
5.0735289898876E-04	5.0735289898876E-04	5.0735289898876E-04
5.1474290817644E-04	5.1474290817644E-04	5.1474290817644E-04
5.2215037976462E-04	5.2215037976462E-04	5.2215037976462E-04
5.2957535478168E-04	5.2957535478168E-04	5.2957535478168E-04
5.3701787435130E-04	5.3701787435130E-04	5.3701787435130E-04
5.4447797969266E-04	5.4447797969266E-04	5.4447797969266E-04
5.5195571212063E-04	5.5195571212063E-04	5.5195571212063E-04
5.5945111304601E-04	5.5945111304601E-04	5.5945111304601E-04
5.6696422397575E-04	5.6696422397575E-04	5.6696422397575E-04
5.7449508651316E-04	5.7449508651316E-04	5.7449508651316E-04
5.8204374235813E-04	5.8204374235813E-04	5.8204374235813E-04
5.8961023330734E-04	5.8961023330734E-04	5.8961023330734E-04
5.9719460125450E-04	5.9719460125450E-04	5.9719460125450E-04
6.0479688819054E-04	6.0479688819054E-04	6.0479688819054E-04
6.1241713620387E-04	6.1241713620387E-04	6.1241713620387E-04
6.2005538748056E-04	6.2005538748056E-04	6.2005538748056E-04
6.2771168430458E-04	6.2771168430458E-04	6.2771168430458E-04
6.3538606905803E-04	6.3538606905803E-04	6.3538606905803E-04
6.4307858422135E-04	6.4307858422135E-04	6.4307858422135E-04
6.5078927237352E-04	6.5078927237352E-04	6.5078927237352E-04
6.5851817619235E-04	6.5851817619235E-04	6.5851817619235E-04
6.6626533845463E-04	6.6626533845463E-04	6.6626533845463E-04
6.7403080203640E-04	6.7403080203640E-04	6.7403080203640E-04
6.8181460991315E-04	6.8181460991315E-04	6.8181460991315E-04
6.8961680516005E-04	6.8961680516005E-04	6.8961680516005E-04
6.9743743095220E-04	6.9743743095220E-04	6.9743743095220E-04
7.0527653056481E-04	7.0527653056481E-04	7.0527653056481E-04
7.1313414737348E-04	7.1313414737348E-04	7.1313414737348E-04
7.2101032485437E-04	7.2101032485437E-04	7.2101032485437E-04
7.2890510658447E-04	7.2890510658447E-04	7.2890510658447E-04
7.3681853624182E-04	7.3681853624182E-04	7.3681853624182E-04
7.4475065760572E-04	7.4475065760572E-04	7.4475065760572E-04
7.5270151455696E-04	7.5270151455696E-04	7.5270151455696E-04
7.6067115107809E-04	7.6067115107809E-04	7.6067115107809E-04
7.6865961125360E-04	7.6865961125360E-04	7.6865961125360E-04
7.7666693927017E-04	7.7666693927017E-04	7.7666693927017E-04
7.8469317941689E-04	7.8469317941689E-04	7.8469317941689E-04
7.9273837608554E-04	7.9273837608554E-04	7.9273837608554E-04
8.0080257377073E-04	8.0080257377073E-04	8.0080257377073E-04
8.0888581707023E-04	8.0888581707023E-04	8.0888581707023E-04
8.1698815068514E-04	8.1698815068514E-04	8.1698815068514E-04
8.2510961942012E-04	8.2510961942012E-04	8.2510961942012E-04
8.3325026818369E-04	8.3325026818369E-04	8.3325026818369E-04
8.4141014198838E-04	8.4141014198838E-04	8.4141014198838E-04
8.4958928595102E-04	8.4958928595102E-04	8.4958928595102E-04
8.5778774529295E-04	8.5778774529295E-04	8.5778774529295E-04
8.6600556534029E-04	8.6600556534029E-04	8.6600556534029E-04
8.7424279152410E-04	8.7424279152410E-04	8.7424279152410E-04
8.8249946938072E-04	8.8249946938072E-04	8.8249946938072E-04
8.9077564455193E-04	8.9077564455193E-04	8.9077564455193E-04
8.9907136278520E-04	8.9907136278520E-04	8.9907136278520E-04
9.0738666993396E-04	9.0738666993396E-04	9.0738666993396E-04
9.1572161195780E-04	9.1572161195780E-04	9.1572161195780E-04
9.2407623492276E-04	9.2407623492276E-04	9.2407623492276E-04
9.3245058500150E-04	9.3245058500150E-04	9.3245058500150E-04
9.4084470847359E-04	9.4084470847359E-04	9.4084470847359E-04
9.4925865172575E-04	9.4925865172575E-04	9.4925865172575E-04
9.5769246125207E-04	9.5769246125207E-04	9.5769246125207E-04
9.6614618365426E-04	9.6614618365426E-04	9.6614618365426E-04
9.7461986564189E-04	9.7461986564189E-04	9.7461986564189E-04
9.8311355403264E-04	9.8311355403264E-04	9.8311355403264E-04
9.9162729575254E-04	9.9162729575254E-04	9.9162729575254E-04
1.0001611378362E-03	1.0001611378362E-03	1.0001611378362E-03
1.0087151274271E-03	1.0087151274271E-03	1.0087151274271E-03
1.0172893117778E-03	1.0172893117778E-03	1.0172893117778E-03
1.0258837382501E-03	1.0258837382501E-03	1.0258837382501E-03
1.0344984543155E-03	1.0344984543155E-03	1.0344984543155E-03
1.0431335075553E-03	1.0431335075553E-03	1.0431335075553E-03
1.0517889456607E-03	1.0517889456607E-03	1.0517889456607E-03
1.0604648164334E-03	1.0604648164334E-03	1.0604648164334E-03
1.0691611677857E-03	1.0691611677857E-03	1.0691611677857E-03
1.0778780477404E-03	1.0778780477404E-03	1.0778780477404E-03
1.0866155044317E-03	1.0866155044317E-03	1.0866155044317E-03
1.0953735861050E-03	1.0953735861050E-03	1.0953735861050E-03
1.1041523411172E-03	1.1041523411172E-03	1.1041523411172E-03
1.1129518179371E-03	1.1129518179371E-03	1.1129518179371E-03
1.1217720651453E-03	1.1217720651453E-03	1.1217720651453E-03
1.1306131314352E-03	1.1306131314352E-03	1.1306131314352E-03
1.1394750656123E-03	1.1394750656123E-03	1.1394750656123E-03
1.1483579165951E-03	1.1483579165951E-03	1.1483579165951E-03
1.1572617334152E-03	1.1572617334152E-03	1.1572617334152E-03
1.1661865652175E-03	1.1661865652175E-03	1.1661865652175E-03
1.1751324612604E-03	1.1751324612604E-03	1.1751324612604E-03
1.1840994709162E-03	1.1840994709162E-03	1.1840994709162E-03
1.1930876436714E-03	1.1930876436714E-03	1.1930876436714E-03
1.2020970291266E-03	1.2020970291266E-03	1.2020970291266E-03
1.2111276769972E-03	1.2111276769972E-03	1.2111276769972E-03
1.2201796371133E-03	1.2201796371133E-03	1.2201796371133E-03
1.2292529594202E-03	1.2292529594202E-03	1.2292529594202E-03
1.2383476939786E-03	1.2383476939786E-03	1.2383476939786E-03
1.2474638909648E-03	1.2474638909648E-03	1.2474638909648E-03
1.2566016006710E-03	1.2566016006710E-03	1.2566016006710E-03
1.2657608735055E-03	1.2657608735055E-03	1.2657608735055E-03
1.2749417599929E-03	1.2749417599929E-03	1.2749417599929E-03
1.2841443107749E-03	1.2841443107749E-03	1.2841443107749E-03
1.2933685766096E-03	1.2933685766096E-03	1.2933685766096E-03
1.3026146083726E-03	1.3026146083726E-03	1.3026146083726E-03
1.3118824570568E-03	1.3118824570568E-03	1.3118824570568E-03
1.3211721737731E-03	1.3211721737731E-03	1.3211721737731E-03
1.3304838097500E-03	1.3304838097500E-03	1.3304838097500E-03
1.3398174163346E-03	1.3398174163346E-03	1.3398174163346E-03
1.3491730449921E-03	1.3491730449921E-03	1.3491730449921E-03
1.3585507473070E-03	1.3585507473070E-03	1.3585507473070E-03
1.3679505749823E-03	1.3679505749823E-03	1.3679505749823E-03
1.3773725798406E-03	1.3773725798406E-03	1.3773725798406E-03
1.3868168138241E-03	1.3868168138241E-03	1.3868168138241E-03
1.3962833289948E-03	1.3962833289948E-03	1.3962833289948E-03
1.4057721775347E-03	1.4057721775347E-03	1.4057721775347E-03
1.4152834117462E-03	1.4152834117462E-03	1.4152834117462E-03
1.4248170840525E-03	1.4248170840525E-03	1.4248170840525E-03
1.4343732469976E-03	1.4343732469976E-03	1.4343732469976E-03
1.4439519532467E-03	1.4439519532467E-03	1.4439519532467E-03
1.4535532555864E-03	1.4535532555864E-03	1.4535532555864E-03
1.4631772069250E-03	1.4631772069250E-03	1.4631772069250E-03
1.4728238602931E-03	1.4728238602931E-03	1.4728238602931E-03
1.4824932688432E-03	1.4824932688432E-03	1.4824932688432E-03
1.4921854858505E-03	1.4921854858505E-03	1.4921854858505E-03
1.5019005647130E-03	1.5019005647130E-03	1.5019005647130E-03
1.5116385589518E-03	1.5116385589518E-03	1.5116385589518E-03
1.5213995222114E-03	1.5213995222114E-03	1.5213995222114E-03
1.5311835082599E-03	1.5311835082599E-03	1.5311835082599E-03
1.5409905709892E-03	1.5409905709892E-03	1.5409905709892E-03
1.5508207644157E-03	1.5508207644157E-03	1.5508207644157E-03
1.5606741426799E-03	1.5606741426799E-03	1.5606741426799E-03
1.5705507600474E-03	1.5705507600474E-03	1.5705507600474E-03
1.5804506709085E-03	1.5804506709085E-03	1.5804506709085E-03
1.5903739297790E-03	1.5903739297790E-03	1.5903739297790E-03
1.6003205913003E-03	1.6003205913003E-03	1.6003205913003E-03
1.6102907102395E-03	1.6102907102395E-03	1.6102907102395E-03
1.6202843414900E-03	1.6202843414900E-03	1.6202843414900E-03
1.6303015400715E-03	1.6303015400715E-03	1.6303015400715E-03
1.6403423611306E-03	1.6403423611306E-03	1.6403423611306E-03
1.6504068599406E-03	1.6504068599406E-03	1.6504068599406E-03
1.6604950919023E-03	1.6604950919023E-03	1.6604950919023E-03
1.6706071125440E-03	1.6706071125440E-03	1.6706071125440E-03
1.6807429775218E-03	1.6807429775218E-03	1.6807429775218E-03
1.6909027426199E-03	1.6909027426199E-03	1.6909027426199E-03
1.7010864637509E-03	1.7010864637509E-03	1.7010864637509E-03
1.7112941969562E-03	1.7112941969562E-03	1.7112941969562E-03
1.7215259984061E-03	1.7215259984061E-03	1.7215259984061E-03
1.7317819244001E-03	1.7317819244001E-03	1.7317819244001E-03
1.7420620313674E-03	1.7420620313674E-03	1.7420620313674E-03
1.7523663758670E-03	1.7523663758670E-03	1.7523663758670E-03
1.7626950145879E-03	1.7626950145879E-03	1.7626950145879E-03
1.7730480043495E-03	1.7730480043495E-03	1.7730480043495E-03
1.7834254021023E-03	1.7834254021023E-03	1.7834254021023E-03
1.7938272649272E-03	1.7938272649272E-03	1.7938272649272E-03
1.8042536500369E-03	1.8042536500369E-03	1.8042536500369E-03
1.8147046147754E-03	1.8147046147754E-03	1.8147046147754E-03
1.8251802166186E-03	1.8251802166186E-03	1.8251802166186E-03
1.8356805131747E-03	1.8356805131747E-03	1.8356805131747E-03
1.8462055621842E-03	1.8462055621842E-03	1.8462055621842E-03
1.8567554215204E-03	1.8567554215204E-03	1.8567554215204E-03
1.8673301491897E-03	1.8673301491897E-03	1.8673301491897E-03
1.8779298033318E-03	1.8779298033318E-03	1.8779298033318E-03
1.8885544422199E-03	1.8885544422199E-03	1.8885544422199E-03
1.8992041242615E-03	1.8992041242615E-03	1.8992041242615E-03
1.9098789079979E-03	1.9098789079979E-03	1.9098789079979E-03
1.9205788521052E-03	1.9205788521052E-03	1.9205788521052E-03
1.9313040153942E-03	1.9313040153942E-03	1.9313040153942E-03
1.9420544568109E-03	1.9420544568109E-03	1.9420544568109E-03
1.9528302354367E-03	1.9528302354367E-03	1.9528302354367E-03
1.9636314104886E-03	1.9636314104886E-03	1.9636314104886E-03
1.9744580413198E-03	1.9744580413198E-03	1.9744580413198E-03
1.9853101874199E-03	1.9853101874199E-03	1.9853101874199E-03
1.9961879084147E-03	1.9961879084147E-03	1.9961879084147E-03
2.0070912640674E-03	2.0070912640674E-03	2.0070912640674E-03
2.0180203142782E-03	2.0180203142782E-03	2.0180203142782E-03
2.0289751190848E-03	2.0289751190848E-03	2.0289751190848E-03
2.0399557386629E-03	2.0399557386629E-03	2.0399557386629E-03
2.0509622333262E-03	2.0509622333262E-03	2.0509622333262E-03
2.0619946635269E-03	2.0619946635269E-03	2.0619946635269E-03
2.0730530898559E-03	2.0730530898559E-03	2.0730530898559E-03
2.0841375730433E-03	2.0841375730433E-03	2.0841375730433E-03
2.0952481739585E-03	2.0952481739585E-03	2.0952481739585E-03
2.1063849536105E-03	2.1063849536105E-03	2.1063849536105E-03
2.1175479731483E-03	2.1175479731483E-03	2.1175479731483E-03
2.1287372938613E-03	2.1287372938613E-03	2.1287372938613E-03
2.1399529771794E-03	2.1399529771794E-03	2.1399529771794E-03
2.1511950846735E-03	2.1511950846735E-03	2.1511950846735E-03
2.1624636780556E-03	2.1624636780556E-03	2.1624636780556E-03
2.1737588191794E-03	2.1737588191794E-03	2.1737588191794E-03
2.1850805700403E-03	2.1850805700403E-03	2.1850805700403E-03
2.1964289927759E-03	2.1964289927759E-03	2.1964289927759E-03
2.2078041496663E-03	2.2078041496663E-03	2.2078041496663E-03
2.2192061031345E-03	2.2192061031345E-03	2.2192061031345E-03
2.2306349157464E-03	2.2306349157464E-03	2.2306349157464E-03
2.2420906502114E-03	2.2420906502114E-03	2.2420906502114E-03
2.2535733693826E-03	2.2535733693826E-03	2.2535733693826E-03
2.2650831362573E-03	2.2650831362573E-03	2.2650831362573E-03
2.2766200139770E-03	2.2766200139770E-03	2.2766200139770E-03
2.2881840658279E-03	2.2881840658279E-03	2.2881840658279E-03
2.2997753552414E-03	2.2997753552414E-03	2.2997753552414E-03
2.3113939457939E-03	2.3113939457939E-03	2.3113939457939E-03
2.3230399012078E-03	2.3230399012078E-03	2.3230399012078E-03
2.3347132853512E-03	2.3347132853512E-03	2.3347132853512E-03
2.3464141622387E-03	2.3464141622387E-03	2.3464141622387E-03
2.3581425960311E-03	2.3581425960311E-03	2.3581425960311E-03
2.3698986510367E-03	2.3698986510367E-03	2.3698986510367E-03
2.3816823917107E-03	2.3816823917107E-03	2.3816823917107E-03
2.3934938826558E-03	2.3934938826558E-03	2.3934938826558E-03
2.4053331886229E-03	2.4053331886229E-03	2.4053331886229E-03
2.4172003745110E-03	2.4172003745110E-03	2.4172003745110E-03
2.4290955053675E-03	2.4290955053675E-03	2.4290955053675E-03
2.4410186463889E-03	2.4410186463889E-03	2.4410186463889E-03
2.4529698629208E-03	2.4529698629208E-03	2.4529698629208E-03
2.4649492204583E-03	2.4649492204583E-03	2.4649492204583E-03
2.4769567846465E-03	2.4769567846465E-03	2.4769567846465E-03
2.4889926212805E-03	2.4889926212805E-03	2.4889926212805E-03
2.5010567963060E-03	2.5010567963060E-03	2.5010567963060E-03
2.5131493758197E-03	2.5131493758197E-03	2.5131493758197E-03
2.5252704260693E-03	2.5252704260693E-03	2.5252704260693E-03
2.5374200134540E-03	2.5374200134540E-03	2.5374200134540E-03
2.5495982045250E-03	2.5495982045250E-03	2.5495982045250E-03
2.5618050659855E-03	2.5618050659855E-03	2.5618050659855E-03
2.5740406646914E-03	2.5740406646914E-03	2.5740406646914E-03
2.5863050676512E-03	2.5863050676512E-03	2.5863050676512E-03
2.5985983420268E-03	2.5985983420268E-03	2.5985983420268E-03
2.6109205551336E-03	2.6109205551336E-03	2.6109205551336E-03
2.6232717744408E-03	2.6232717744408E-03	2.6232717744408E-03
2.6356520675716E-03	2.6356520675716E-03	2.6356520675716E-03
2.6480615023041E-03	2.6480615023041E-03	2.6480615023041E-03
2.6605001465710E-03	2.6605001465710E-03	2.6605001465710E-03
2.6729680684602E-03	2.6729680684602E-03	2.6729680684602E-03
2.6854653362154E-03	2.6854653362154E-03	2.6854653362154E-03
2.6979920182358E-03	2.6979920182358E-03	2.6979920182358E-03
2.7105481830772E-03	2.7105481830772E-03	2.7105481830772E-03
2.7231338994517E-03	2.7231338994517E-03	2.7231338994517E-03
2.7357492362285E-03	2.7357492362285E-03	2.7357492362285E-03
2.7483942624338E-03	2.7483942624338E-03	2.7483942624338E-03
2.7610690472516E-03	2.7610690472516E-03	2.7610690472516E-03
2.7737736600238E-03	2.7737736600238E-03	2.7737736600238E-03
2.7865081702506E-03	2.7865081702506E-03	2.7865081702506E-03
2.7992726475908E-03	2.7992726475908E-03	2.7992726475908E-03
2.8120671618621E-03	2.8120671618621E-03	2.8120671618621E-03
2.8248917830417E-03	2.8248917830417E-03	2.8248917830417E-03
2.8377465812663E-03	2.8377465812663E-03	2.8377465812663E-03
2.8506316268326E-03	2.8506316268326E-03	2.8506316268326E-03
2.8635469901979E-03	2.8635469901979E-03	2.8635469901979E-03
2.8764927419800E-03	2.8764927419800E-03	2.8764927419800E-03
2.8894689529578E-03	2.8894689529578E-03	2.8894689529578E-03
2.9024756940717E-03	2.9024756940717E-03	2.9024756940717E-03
2.9155130364238E-03	2.9155130364238E-03	2.9155130364238E-03
2.9285810512784E-03	2.9285810512784E-03	2.9285810512784E-03
2.9416798100622E-03	2.9416798100622E-03	2.9416798100622E-03
2.9548093843646E-03	2.9548093843646E-03	2.9548093843646E-03
2.9679698459386E-03	2.9679698459386E-03	2.9679698459386E-03
2.9811612667002E-03	2.9811612667002E-03	2.9811612667002E-03
2.9943837187298E-03	2.9943837187298E-03	2.9943837187298E-03
3.0076372742716E-03	3.0076372742716E-03	3.0076372742716E-03
3.0209220057348E-03	3.0209220057348E-03	3.0209220057348E-03
3.0342379856934E-03	3.0342379856934E-03	3.0342379856934E-03
3.0475852868865E-03	3.0475852868865E-03	3.0475852868865E-03
3.0609639822194E-03	3.0609639822194E-03	3.0609639822194E-03
3.0743741447629E-03	3.0743741447629E-03	3.0743741447629E-03
3.0878158477546E-03	3.0878158477546E-03	3.0878158477546E-03
3.1012891645986E-03	3.1012891645986E-03	3.1012891645986E-03
3.1147941688664E-03	3.1147941688664E-03	3.1147941688664E-03
3.1283309342967E-03	3.1283309342967E-03	3.1283309342967E-03
3.1418995347963E-03	3.1418995347963E-03	3.1418995347963E-03
3.1555000444401E-03	3.1555000444401E-03	3.1555000444401E-03
3.1691325374715E-03	3.1691325374715E-03	3.1691325374715E-03
3.1827970883030E-03	3.1827970883030E-03	3.1827970883030E-03
3.1964937715164E-03	3.1964937715164E-03	3.1964937715164E-03
3.2102226618631E-03	3.2102226618631E-03	3.2102226618631E-03
3.2239838342647E-03	3.2239838342647E-03	3.2239838342647E-03
3.2377773638130E-03	3.2377773638130E-03	3.2377773638130E-03
3.2516033257708E-03	3.2516033257708E-03	3.2516033257708E-03
3.2654617955718E-03	3.2654617955718E-03	3.2654617955718E-03
3.2793528488216E-03	3.2793528488216E-03	3.2793528488216E-03
3.2932765612974E-03	3.2932765612974E-03	3.2932765612974E-03
3.3072330089488E-03	3.3072330089488E-03	3.3072330089488E-03
3.3212222678980E-03	3.3212222678980E-03	3.3212222678980E-03
3.3352444144402E-03	3.3352444144402E-03	3.3352444144402E-03
3.3492995250441E-03	3.3492995250441E-03	3.3492995250441E-03
3.3633876763520E-03	3.3633876763520E-03	3.3633876763520E-03
3.3775089451806E-03	3.3775089451806E-03	3.3775089451806E-03
3.3916634085207E-03	3.3916634085207E-03	3.3916634085207E-03
3.4058511435385E-03	3.4058511435385E-03	3.4058511435385E-03
3.4200722275752E-03	3.4200722275752E-03	3.4200722275752E-03
3.4343267381475E-03	3.4343267381475E-03	3.4343267381475E-03
3.4486147529485E-03	3.4486147529485E-03	3.4486147529485E-03
3.4629363498475E-03	3.4629363498475E-03	3.4629363498475E-03
3.4772916068905E-03	3.4772916068905E-03	3.4772916068905E-03
3.4916806023010E-03	3.4916806023010E-03	3.4916806023010E-03
3.5061034144797E-03	3.5061034144797E-03	3.5061034144797E-03
3.5205601220055E-03	3.5205601220055E-03	3.5205601220055E-03
3.5350508036354E-03	3.5350508036354E-03	3.5350508036354E-03
3.5495755383052E-03	3.5495755383052E-03	3.5495755383052E-03
3.5641344051300E-03	3.5641344051300E-03	3.5641344051300E-03
3.5787274834041E-03	3.5787274834041E-03	3.5787274834041E-03
3.5933548526017E-03	3.5933548526017E-03	3.5933548526017E-03
3.6080165923774E-03	3.6080165923774E-03	3.6080165923774E-03
3.6227127825663E-03	3.6227127825663E-03	3.6227127825663E-03
3.6374435031846E-03	3.6374435031846E-03	3.6374435031846E-03
3.6522088344299E-03	3.6522088344299E-03	3.6522088344299E-03
3.6670088566816E-03	3.6670088566816E-03	3.6670088566816E-03
3.6818436505013E-03	3.6818436505013E-03	3.6818436505013E-03
3.6967132966332E-03	3.6967132966332E-03	3.6967132966332E-03
3.7116178760045E-03	3.7116178760045E-03	3.7116178760045E-03
3.7265574697257E-03	3.7265574697257E-03	3.7265574697257E-03
3.7415321590912E-03	3.7415321590912E-03	3.7415321590912E-03
3.7565420255795E-03	3.7565420255795E-03	3.7565420255795E-03
3.7715871508535E-03	3.7715871508535E-03	3.7715871508535E-03
3.7866676167614E-03	3.7866676167614E-03	3.7866676167614E-03
3.8017835053365E-03	3.8017835053365E-03	3.8017835053365E-03
3.8169348987978E-03	3.8169348987978E-03	3.8169348987978E-03
3.8321218795507E-03	3.8321218795507E-03	3.8321218795507E-03
3.8473445301869E-03	3.8473445301869E-03	3.8473445301869E-03
3.8626029334853E-03	3.8626029334853E-03	3.8626029334853E-03
3.8778971724119E-03	3.8778971724119E-03	3.8778971724119E-03
3.8932273301205E-03	3.8932273301205E-03	3.8932273301205E-03
3.9085934899532E-03	3.9085934899532E-03	3.9085934899532E-03
3.9239957354406E-03	3.9239957354406E-03	3.9239957354406E-03
3.9394341503021E-03	3.9394341503021E-03	3.9394341503021E-03
3.9549088184467E-03	3.9549088184467E-03	3.9549088184467E-03
3.9704198239729E-03	3.9704198239729E-03	3.9704198239729E-03
3.9859672511697E-03	3.9859672511697E-03	3.9859672511697E-03
4.0015511845163E-03	4.0015511845163E-03	4.0015511845163E-03
4.0171717086833E-03	4.0171717086833E-03	4.0171717086833E-03
4.0328289085324E-03	4.0328289085324E-03	4.0328289085324E-03
4.0485228691171E-03	4.0485228691171E-03	4.0485228691171E-03
4.0642536756833E-03	4.0642536756833E-03	4.0642536756833E-03
