Addons/Fimic/Filmic Resolve - Scene Linear to Base Encoding.cube
# Scene Linear BT.709 to Filmic Log		
LUT_1D_SIZE 65536		
LUT_1D_INPUT_RANGE 0.00017578125 16.2917402385381		
0.0000000000000E+00	0.0000000000000E+00	0.0000000000000E+00
3.0304364481652E-02	3.0304364481652E-02	3.0304364481652E-02
9.0910425087713E-02	9.0910425087713E-02	9.0910425087713E-02
1.2636269785869E-01	1.2636269785869E-01	1.2636269785869E-01
1.5151648569377E-01	1.5151648569377E-01	1.5151648569377E-01
1.7102727932331E-01	1.7102727932331E-01	1.7102727932331E-01
1.8696875846475E-01	1.8696875846475E-01	1.8696875846475E-01
2.0044708703060E-01	2.0044708703060E-01	2.0044708703060E-01
2.1212254629983E-01	2.1212254629983E-01	2.1212254629983E-01
2.2242103123573E-01	2.2242103123573E-01	2.2242103123573E-01
2.3163333992937E-01	2.3163333992937E-01	2.3163333992937E-01
2.3996688682331E-01	2.3996688682331E-01	2.3996688682331E-01
2.4757481907081E-01	2.4757481907081E-01	2.4757481907081E-01
2.5457343830839E-01	2.5457343830839E-01	2.5457343830839E-01
2.6105314763666E-01	2.6105314763666E-01	2.6105314763666E-01
2.6708561270035E-01	2.6708561270035E-01	2.6708561270035E-01
2.7272860690590E-01	2.7272860690590E-01	2.7272860690590E-01
2.7802938516349E-01	2.7802938516349E-01	2.7802938516349E-01
2.8302709184179E-01	2.8302709184179E-01	2.8302709184179E-01
2.8775451681157E-01	2.8775451681157E-01	2.8775451681157E-01
2.9223940053543E-01	2.9223940053543E-01	2.9223940053543E-01
2.9650542040764E-01	2.9650542040764E-01	2.9650542040764E-01
3.0057294742937E-01	3.0057294742937E-01	3.0057294742937E-01
3.0445963454571E-01	3.0445963454571E-01	3.0445963454571E-01
3.0818087967687E-01	3.0818087967687E-01	3.0818087967687E-01
3.1175019416497E-01	3.1175019416497E-01	3.1175019416497E-01
3.1517949891445E-01	3.1517949891445E-01	3.1517949891445E-01
3.1847936461277E-01	3.1847936461277E-01	3.1847936461277E-01
3.2165920824272E-01	3.2165920824272E-01	3.2165920824272E-01
3.2472745509545E-01	3.2472745509545E-01	3.2472745509545E-01
3.2769167330641E-01	3.2769167330641E-01	3.2769167330641E-01
3.3055868632328E-01	3.3055868632328E-01	3.3055868632328E-01
3.3333466751196E-01	3.3333466751196E-01	3.3333466751196E-01
3.3602522020035E-01	3.3602522020035E-01	3.3602522020035E-01
3.3863544576955E-01	3.3863544576955E-01	3.3863544576955E-01
3.4117000187226E-01	3.4117000187226E-01	3.4117000187226E-01
3.4363315244785E-01	3.4363315244785E-01	3.4363315244785E-01
3.4602881088341E-01	3.4602881088341E-01	3.4602881088341E-01
3.4836057741763E-01	3.4836057741763E-01	3.4836057741763E-01
3.5063177168543E-01	3.5063177168543E-01	3.5063177168543E-01
3.5284546114149E-01	3.5284546114149E-01	3.5284546114149E-01
3.5500448597366E-01	3.5500448597366E-01	3.5500448597366E-01
3.5711148101370E-01	3.5711148101370E-01	3.5711148101370E-01
3.5916889506966E-01	3.5916889506966E-01	3.5916889506966E-01
3.6117900803543E-01	3.6117900803543E-01	3.6117900803543E-01
3.6314394607739E-01	3.6314394607739E-01	3.6314394607739E-01
3.6506569515177E-01	3.6506569515177E-01	3.6506569515177E-01
3.6694611306818E-01	3.6694611306818E-01	3.6694611306818E-01
3.6878694028294E-01	3.6878694028294E-01	3.6878694028294E-01
3.7058980957954E-01	3.7058980957954E-01	3.7058980957954E-01
3.7235625477103E-01	3.7235625477103E-01	3.7235625477103E-01
3.7408771854053E-01	3.7408771854053E-01	3.7408771854053E-01
3.7578555952051E-01	3.7578555952051E-01	3.7578555952051E-01
3.7745105869760E-01	3.7745105869760E-01	3.7745105869760E-01
3.7908542521883E-01	3.7908542521883E-01	3.7908542521883E-01
3.8068980166497E-01	3.8068980166497E-01	3.8068980166497E-01
3.8226526884878E-01	3.8226526884878E-01	3.8226526884878E-01
3.8381285018861E-01	3.8381285018861E-01	3.8381285018861E-01
3.8533351570151E-01	3.8533351570151E-01	3.8533351570151E-01
3.8682818565510E-01	3.8682818565510E-01	3.8682818565510E-01
3.8829773391247E-01	3.8829773391247E-01	3.8829773391247E-01
3.8974299100062E-01	3.8974299100062E-01	3.8974299100062E-01
3.9116474692934E-01	3.9116474692934E-01	3.9116474692934E-01
3.9256375378468E-01	3.9256375378468E-01	3.9256375378468E-01
3.9394072811802E-01	3.9394072811802E-01	3.9394072811802E-01
3.9529635315004E-01	3.9529635315004E-01	3.9529635315004E-01
3.9663128080641E-01	3.9663128080641E-01	3.9663128080641E-01
3.9794613360031E-01	3.9794613360031E-01	3.9794613360031E-01
3.9924150637561E-01	3.9924150637561E-01	3.9924150637561E-01
4.0051796792275E-01	4.0051796792275E-01	4.0051796792275E-01
4.0177606247832E-01	4.0177606247832E-01	4.0177606247832E-01
4.0301631111830E-01	4.0301631111830E-01	4.0301631111830E-01
4.0423921305391E-01	4.0423921305391E-01	4.0423921305391E-01
4.0544524683802E-01	4.0544524683802E-01	4.0544524683802E-01
4.0663487148947E-01	4.0663487148947E-01	4.0663487148947E-01
4.0780852754201E-01	4.0780852754201E-01	4.0780852754201E-01
4.0896663802369E-01	4.0896663802369E-01	4.0896663802369E-01
4.1010960937225E-01	4.1010960937225E-01	4.1010960937225E-01
4.1123783229149E-01	4.1123783229149E-01	4.1123783229149E-01
4.1235168255299E-01	4.1235168255299E-01	4.1235168255299E-01
4.1345152174755E-01	4.1345152174755E-01	4.1345152174755E-01
4.1453769798981E-01	4.1453769798981E-01	4.1453769798981E-01
4.1561054657972E-01	4.1561054657972E-01	4.1561054657972E-01
4.1667039062389E-01	4.1667039062389E-01	4.1667039062389E-01
4.1771754161976E-01	4.1771754161976E-01	4.1771754161976E-01
4.1875230000515E-01	4.1875230000515E-01	4.1875230000515E-01
4.1977495567572E-01	4.1977495567572E-01	4.1977495567572E-01
4.2078578847248E-01	4.2078578847248E-01	4.2078578847248E-01
4.2178506864149E-01	4.2178506864149E-01	4.2178506864149E-01
4.2277305726750E-01	4.2277305726750E-01	4.2277305726750E-01
4.2375000668345E-01	4.2375000668345E-01	4.2375000668345E-01
4.2471616085733E-01	4.2471616085733E-01	4.2471616085733E-01
4.2567175575784E-01	4.2567175575784E-01	4.2567175575784E-01
4.2661701970032E-01	4.2661701970032E-01	4.2661701970032E-01
4.2755217367424E-01	4.2755217367424E-01	4.2755217367424E-01
4.2847743165323E-01	4.2847743165323E-01	4.2847743165323E-01
4.2939300088900E-01	4.2939300088900E-01	4.2939300088900E-01
4.3029908218996E-01	4.3029908218996E-01	4.3029908218996E-01
4.3119587018560E-01	4.3119587018560E-01	4.3119587018560E-01
4.3208355357739E-01	4.3208355357739E-01	4.3208355357739E-01
4.3296231537709E-01	4.3296231537709E-01	4.3296231537709E-01
4.3383233313328E-01	4.3383233313328E-01	4.3383233313328E-01
4.3469377914659E-01	4.3469377914659E-01	4.3469377914659E-01
4.3554682067458E-01	4.3554682067458E-01	4.3554682067458E-01
4.3639162012657E-01	4.3639162012657E-01	4.3639162012657E-01
4.3722833524930E-01	4.3722833524930E-01	4.3722833524930E-01
4.3805711930366E-01	4.3805711930366E-01	4.3805711930366E-01
4.3887812123324E-01	4.3887812123324E-01	4.3887812123324E-01
4.3969148582489E-01	4.3969148582489E-01	4.3969148582489E-01
4.4049735386207E-01	4.4049735386207E-01	4.4049735386207E-01
4.4129586227103E-01	4.4129586227103E-01	4.4129586227103E-01
4.4208714426045E-01	4.4208714426045E-01	4.4208714426045E-01
4.4287132945484E-01	4.4287132945484E-01	4.4287132945484E-01
4.4364854402197E-01	4.4364854402197E-01	4.4364854402197E-01
4.4441891079467E-01	4.4441891079467E-01	4.4441891079467E-01
4.4518254938737E-01	4.4518254938737E-01	4.4518254938737E-01
4.4593957630757E-01	4.4593957630757E-01	4.4593957630757E-01
4.4669010506247E-01	4.4669010506247E-01	4.4669010506247E-01
4.4743424626116E-01	4.4743424626116E-01	4.4743424626116E-01
4.4817210771244E-01	4.4817210771244E-01	4.4817210771244E-01
4.4890379451853E-01	4.4890379451853E-01	4.4890379451853E-01
4.4962940916496E-01	4.4962940916496E-01	4.4962940916496E-01
4.5034905160668E-01	4.5034905160668E-01	4.5034905160668E-01
4.5106281935070E-01	4.5106281935070E-01	4.5106281935070E-01
4.5177080753540E-01	4.5177080753540E-01	4.5177080753540E-01
4.5247310900663E-01	4.5247310900663E-01	4.5247310900663E-01
4.5316981439074E-01	4.5316981439074E-01	4.5316981439074E-01
4.5386101216481E-01	4.5386101216481E-01	4.5386101216481E-01
4.5454678872408E-01	4.5454678872408E-01	4.5454678872408E-01
4.5522722844670E-01	4.5522722844670E-01	4.5522722844670E-01
4.5590241375610E-01	4.5590241375610E-01	4.5590241375610E-01
4.5657242518089E-01	4.5657242518089E-01	4.5657242518089E-01
4.5723734141247E-01	4.5723734141247E-01	4.5723734141247E-01
4.5789723936051E-01	4.5789723936051E-01	4.5789723936051E-01
4.5855219420637E-01	4.5855219420637E-01	4.5855219420637E-01
4.5920227945443E-01	4.5920227945443E-01	4.5920227945443E-01
4.5984756698167E-01	4.5984756698167E-01	4.5984756698167E-01
4.6048812708532E-01	4.6048812708532E-01	4.6048812708532E-01
4.6112402852881E-01	4.6112402852881E-01	4.6112402852881E-01
4.6175533858611E-01	4.6175533858611E-01	4.6175533858611E-01
4.6238212308438E-01	4.6238212308438E-01	4.6238212308438E-01
4.6300444644522E-01	4.6300444644522E-01	4.6300444644522E-01
4.6362237172436E-01	4.6362237172436E-01	4.6362237172436E-01
4.6423596065004E-01	4.6423596065004E-01	4.6423596065004E-01
4.6484527365997E-01	4.6484527365997E-01	4.6484527365997E-01
4.6545036993710E-01	4.6545036993710E-01	4.6545036993710E-01
4.6605130744408E-01	4.6605130744408E-01	4.6605130744408E-01
4.6664814295658E-01	4.6664814295658E-01	4.6664814295658E-01
4.6724093209553E-01	4.6724093209553E-01	4.6724093209553E-01
4.6782972935815E-01	4.6782972935815E-01	4.6782972935815E-01
4.6841458814807E-01	4.6841458814807E-01	4.6841458814807E-01
4.6899556080438E-01	4.6899556080438E-01	4.6899556080438E-01
4.6957269862975E-01	4.6957269862975E-01	4.6957269862975E-01
4.7014605191757E-01	4.7014605191757E-01	4.7014605191757E-01
4.7071566997831E-01	4.7071566997831E-01	4.7071566997831E-01
4.7128160116494E-01	4.7128160116494E-01	4.7128160116494E-01
4.7184389289755E-01	4.7184389289755E-01	4.7184389289755E-01
4.7240259168721E-01	4.7240259168721E-01	4.7240259168721E-01
4.7295774315905E-01	4.7295774315905E-01	4.7295774315905E-01
4.7350939207464E-01	4.7350939207464E-01	4.7350939207464E-01
4.7405758235361E-01	4.7405758235361E-01	4.7405758235361E-01
4.7460235709466E-01	4.7460235709466E-01	4.7460235709466E-01
4.7514375859587E-01	4.7514375859587E-01	4.7514375859587E-01
4.7568182837445E-01	4.7568182837445E-01	4.7568182837445E-01
4.7621660718578E-01	4.7621660718578E-01	4.7621660718578E-01
4.7674813504201E-01	4.7674813504201E-01	4.7674813504201E-01
4.7727645122995E-01	4.7727645122995E-01	4.7727645122995E-01
4.7780159432857E-01	4.7780159432857E-01	4.7780159432857E-01
4.7832360222582E-01	4.7832360222582E-01	4.7832360222582E-01
4.7884251213512E-01	4.7884251213512E-01	4.7884251213512E-01
4.7935836061121E-01	4.7935836061121E-01	4.7935836061121E-01
4.7987118356565E-01	4.7987118356565E-01	4.7987118356565E-01
4.8038101628178E-01	4.8038101628178E-01	4.8038101628178E-01
4.8088789342933E-01	4.8088789342933E-01	4.8088789342933E-01
4.8139184907855E-01	4.8139184907855E-01	4.8139184907855E-01
4.8189291671392E-01	4.8189291671392E-01	4.8189291671392E-01
4.8239112924755E-01	4.8239112924755E-01	4.8239112924755E-01
4.8288651903214E-01	4.8288651903214E-01	4.8288651903214E-01
4.8337911787356E-01	4.8337911787356E-01	4.8337911787356E-01
4.8386895704312E-01	4.8386895704312E-01	4.8386895704312E-01
4.8435606728951E-01	4.8435606728951E-01	4.8435606728951E-01
4.8484047885033E-01	4.8484047885033E-01	4.8484047885033E-01
4.8532222146339E-01	4.8532222146339E-01	4.8532222146339E-01
4.8580132437766E-01	4.8580132437766E-01	4.8580132437766E-01
4.8627781636390E-01	4.8627781636390E-01	4.8627781636390E-01
4.8675172572507E-01	4.8675172572507E-01	4.8675172572507E-01
4.8722308030638E-01	4.8722308030638E-01	4.8722308030638E-01
4.8769190750515E-01	4.8769190750515E-01	4.8769190750515E-01
4.8815823428030E-01	4.8815823428030E-01	4.8815823428030E-01
4.8862208716172E-01	4.8862208716172E-01	4.8862208716172E-01
4.8908349225929E-01	4.8908349225929E-01	4.8908349225929E-01
4.8954247527170E-01	4.8954247527170E-01	4.8954247527170E-01
4.8999906149506E-01	4.8999906149506E-01	4.8999906149506E-01
4.9045327583123E-01	4.9045327583123E-01	4.9045327583123E-01
4.9090514279602E-01	4.9090514279602E-01	4.9090514279602E-01
4.9135468652708E-01	4.9135468652708E-01	4.9135468652708E-01
4.9180193079167E-01	4.9180193079167E-01	4.9180193079167E-01
4.9224689899416E-01	4.9224689899416E-01	4.9224689899416E-01
4.9268961418345E-01	4.9268961418345E-01	4.9268961418345E-01
4.9313009906006E-01	4.9313009906006E-01	4.9313009906006E-01
4.9356837598315E-01	4.9356837598315E-01	4.9356837598315E-01
4.9400446697735E-01	4.9400446697735E-01	4.9400446697735E-01
4.9443839373934E-01	4.9443839373934E-01	4.9443839373934E-01
4.9487017764439E-01	4.9487017764439E-01	4.9487017764439E-01
4.9529983975265E-01	4.9529983975265E-01	4.9529983975265E-01
4.9572740081532E-01	4.9572740081532E-01	4.9572740081532E-01
4.9615288128064E-01	4.9615288128064E-01	4.9615288128064E-01
4.9657630129979E-01	4.9657630129979E-01	4.9657630129979E-01
4.9699768073263E-01	4.9699768073263E-01	4.9699768073263E-01
4.9741703915322E-01	4.9741703915322E-01	4.9741703915322E-01
4.9783439585536E-01	4.9783439585536E-01	4.9783439585536E-01
4.9824976985785E-01	4.9824976985785E-01	4.9824976985785E-01
4.9866317990973E-01	4.9866317990973E-01	4.9866317990973E-01
4.9907464449534E-01	4.9907464449534E-01	4.9907464449534E-01
4.9948418183930E-01	4.9948418183930E-01	4.9948418183930E-01
4.9989180991132E-01	4.9989180991132E-01	4.9989180991132E-01
5.0029754643095E-01	5.0029754643095E-01	5.0029754643095E-01
5.0070140887223E-01	5.0070140887223E-01	5.0070140887223E-01
5.0110341446813E-01	5.0110341446813E-01	5.0110341446813E-01
5.0150358021506E-01	5.0150358021506E-01	5.0150358021506E-01
5.0190192287709E-01	5.0190192287709E-01	5.0190192287709E-01
5.0229845899022E-01	5.0229845899022E-01	5.0229845899022E-01
5.0269320486651E-01	5.0269320486651E-01	5.0269320486651E-01
5.0308617659804E-01	5.0308617659804E-01	5.0308617659804E-01
5.0347739006090E-01	5.0347739006090E-01	5.0347739006090E-01
5.0386686091905E-01	5.0386686091905E-01	5.0386686091905E-01
5.0425460462803E-01	5.0425460462803E-01	5.0425460462803E-01
5.0464063643868E-01	5.0464063643868E-01	5.0464063643868E-01
5.0502497140073E-01	5.0502497140073E-01	5.0502497140073E-01
5.0540762436632E-01	5.0540762436632E-01	5.0540762436632E-01
5.0578860999343E-01	5.0578860999343E-01	5.0578860999343E-01
5.0616794274929E-01	5.0616794274929E-01	5.0616794274929E-01
5.0654563691363E-01	5.0654563691363E-01	5.0654563691363E-01
5.0692170658191E-01	5.0692170658191E-01	5.0692170658191E-01
5.0729616566853E-01	5.0729616566853E-01	5.0729616566853E-01
5.0766902790983E-01	5.0766902790983E-01	5.0766902790983E-01
5.0804030686722E-01	5.0804030686722E-01	5.0804030686722E-01
5.0841001593003E-01	5.0841001593003E-01	5.0841001593003E-01
5.0877816831850E-01	5.0877816831850E-01	5.0877816831850E-01
5.0914477708655E-01	5.0914477708655E-01	5.0914477708655E-01
5.0950985512459E-01	5.0950985512459E-01	5.0950985512459E-01
5.0987341516226E-01	5.0987341516226E-01	5.0987341516226E-01
5.1023546977102E-01	5.1023546977102E-01	5.1023546977102E-01
5.1059603136685E-01	5.1059603136685E-01	5.1059603136685E-01
5.1095511221274E-01	5.1095511221274E-01	5.1095511221274E-01
5.1131272442120E-01	5.1131272442120E-01	5.1131272442120E-01
5.1166887995676E-01	5.1166887995676E-01	5.1166887995676E-01
5.1202359063830E-01	5.1202359063830E-01	5.1202359063830E-01
5.1237686814146E-01	5.1237686814146E-01	5.1237686814146E-01
5.1272872400093E-01	5.1272872400093E-01	5.1272872400093E-01
5.1307916961269E-01	5.1307916961269E-01	5.1307916961269E-01
5.1342821623625E-01	5.1342821623625E-01	5.1342821623625E-01
5.1377587499680E-01	5.1377587499680E-01	5.1377587499680E-01
5.1412215688737E-01	5.1412215688737E-01	5.1412215688737E-01
5.1446707277088E-01	5.1446707277088E-01	5.1446707277088E-01
5.1481063338219E-01	5.1481063338219E-01	5.1481063338219E-01
5.1515284933014E-01	5.1515284933014E-01	5.1515284933014E-01
5.1549373109946E-01	5.1549373109946E-01	5.1549373109946E-01
5.1583328905276E-01	5.1583328905276E-01	5.1583328905276E-01
5.1617153343235E-01	5.1617153343235E-01	5.1617153343235E-01
5.1650847436217E-01	5.1650847436217E-01	5.1650847436217E-01
5.1684412184952E-01	5.1684412184952E-01	5.1684412184952E-01
5.1717848578695E-01	5.1717848578695E-01	5.1717848578695E-01
5.1751157595391E-01	5.1751157595391E-01	5.1751157595391E-01
5.1784340201853E-01	5.1784340201853E-01	5.1784340201853E-01
5.1817397353926E-01	5.1817397353926E-01	5.1817397353926E-01
5.1850329996657E-01	5.1850329996657E-01	5.1850329996657E-01
5.1883139064453E-01	5.1883139064453E-01	5.1883139064453E-01
5.1915825481243E-01	5.1915825481243E-01	5.1915825481243E-01
5.1948390160630E-01	5.1948390160630E-01	5.1948390160630E-01
5.1980834006049E-01	5.1980834006049E-01	5.1980834006049E-01
5.2013157910916E-01	5.2013157910916E-01	5.2013157910916E-01
5.2045362758773E-01	5.2045362758773E-01	5.2045362758773E-01
5.2077449423437E-01	5.2077449423437E-01	5.2077449423437E-01
5.2109418769138E-01	5.2109418769138E-01	5.2109418769138E-01
5.2141271650662E-01	5.2141271650662E-01	5.2141271650662E-01
5.2173008913488E-01	5.2173008913488E-01	5.2173008913488E-01
5.2204631393918E-01	5.2204631393918E-01	5.2204631393918E-01
5.2236139919217E-01	5.2236139919217E-01	5.2236139919217E-01
5.2267535307736E-01	5.2267535307736E-01	5.2267535307736E-01
5.2298818369044E-01	5.2298818369044E-01	5.2298818369044E-01
5.2329989904050E-01	5.2329989904050E-01	5.2329989904050E-01
5.2361050705128E-01	5.2361050705128E-01	5.2361050705128E-01
5.2392001556237E-01	5.2392001556237E-01	5.2392001556237E-01
5.2422843233042E-01	5.2422843233042E-01	5.2422843233042E-01
5.2453576503027E-01	5.2453576503027E-01	5.2453576503027E-01
5.2484202125610E-01	5.2484202125610E-01	5.2484202125610E-01
5.2514720852260E-01	5.2514720852260E-01	5.2514720852260E-01
5.2545133426604E-01	5.2545133426604E-01	5.2545133426604E-01
5.2575440584533E-01	5.2575440584533E-01	5.2575440584533E-01
5.2605643054316E-01	5.2605643054316E-01	5.2605643054316E-01
5.2635741556700E-01	5.2635741556700E-01	5.2635741556700E-01
5.2665736805014E-01	5.2665736805014E-01	5.2665736805014E-01
5.2695629505270E-01	5.2695629505270E-01	5.2695629505270E-01
5.2725420356264E-01	5.2725420356264E-01	5.2725420356264E-01
5.2755110049676E-01	5.2755110049676E-01	5.2755110049676E-01
5.2784699270159E-01	5.2784699270159E-01	5.2784699270159E-01
5.2814188695443E-01	5.2814188695443E-01	5.2814188695443E-01
5.2843578996421E-01	5.2843578996421E-01	5.2843578996421E-01
5.2872870837245E-01	5.2872870837245E-01	5.2872870837245E-01
5.2902064875413E-01	5.2902064875413E-01	5.2902064875413E-01
5.2931161761860E-01	5.2931161761860E-01	5.2931161761860E-01
5.2960162141045E-01	5.2960162141045E-01	5.2960162141045E-01
5.2989066651032E-01	5.2989066651032E-01	5.2989066651032E-01
5.3017875923581E-01	5.3017875923581E-01	5.3017875923581E-01
5.3046590584227E-01	5.3046590584227E-01	5.3046590584227E-01
5.3075211252363E-01	5.3075211252363E-01	5.3075211252363E-01
5.3103738541318E-01	5.3103738541318E-01	5.3103738541318E-01
5.3132173058437E-01	5.3132173058437E-01	5.3132173058437E-01
5.3160515405162E-01	5.3160515405162E-01	5.3160515405162E-01
5.3188766177100E-01	5.3188766177100E-01	5.3188766177100E-01
5.3216925964108E-01	5.3216925964108E-01	5.3216925964108E-01
5.3244995350361E-01	5.3244995350361E-01	5.3244995350361E-01
5.3272974914424E-01	5.3272974914424E-01	5.3272974914424E-01
5.3300865229327E-01	5.3300865229327E-01	5.3300865229327E-01
5.3328666862634E-01	5.3328666862634E-01	5.3328666862634E-01
5.3356380376511E-01	5.3356380376511E-01	5.3356380376511E-01
5.3384006327798E-01	5.3384006327798E-01	5.3384006327798E-01
5.3411545268070E-01	5.3411545268070E-01	5.3411545268070E-01
5.3438997743710E-01	5.3438997743710E-01	5.3438997743710E-01
5.3466364295967E-01	5.3466364295967E-01	5.3466364295967E-01
5.3493645461028E-01	5.3493645461028E-01	5.3493645461028E-01
5.3520841770072E-01	5.3520841770072E-01	5.3520841770072E-01
5.3547953749341E-01	5.3547953749341E-01	5.3547953749341E-01
5.3574981920193E-01	5.3574981920193E-01	5.3574981920193E-01
5.3601926799170E-01	5.3601926799170E-01	5.3601926799170E-01
5.3628788898051E-01	5.3628788898051E-01	5.3628788898051E-01
5.3655568723911E-01	5.3655568723911E-01	5.3655568723911E-01
5.3682266779184E-01	5.3682266779184E-01	5.3682266779184E-01
5.3708883561712E-01	5.3708883561712E-01	5.3708883561712E-01
5.3735419564807E-01	5.3735419564807E-01	5.3735419564807E-01
5.3761875277300E-01	5.3761875277300E-01	5.3761875277300E-01
5.3788251183601E-01	5.3788251183601E-01	5.3788251183601E-01
5.3814547763749E-01	5.3814547763749E-01	5.3814547763749E-01
5.3840765493463E-01	5.3840765493463E-01	5.3840765493463E-01
5.3866904844196E-01	5.3866904844196E-01	5.3866904844196E-01
5.3892966283188E-01	5.3892966283188E-01	5.3892966283188E-01
5.3918950273510E-01	5.3918950273510E-01	5.3918950273510E-01
5.3944857274118E-01	5.3944857274118E-01	5.3944857274118E-01
5.3970687739901E-01	5.3970687739901E-01	5.3970687739901E-01
5.3996442121727E-01	5.3996442121727E-01	5.3996442121727E-01
5.4022120866494E-01	5.4022120866494E-01	5.4022120866494E-01
5.4047724417171E-01	5.4047724417171E-01	5.4047724417171E-01
5.4073253212849E-01	5.4073253212849E-01	5.4073253212849E-01
5.4098707688784E-01	5.4098707688784E-01	5.4098707688784E-01
5.4124088276441E-01	5.4124088276441E-01	5.4124088276441E-01
5.4149395403539E-01	5.4149395403539E-01	5.4149395403539E-01
5.4174629494094E-01	5.4174629494094E-01	5.4174629494094E-01
5.4199790968461E-01	5.4199790968461E-01	5.4199790968461E-01
5.4224880243375E-01	5.4224880243375E-01	5.4224880243375E-01
5.4249897731998E-01	5.4249897731998E-01	5.4249897731998E-01
5.4274843843951E-01	5.4274843843951E-01	5.4274843843951E-01
5.4299718985361E-01	5.4299718985361E-01	5.4299718985361E-01
5.4324523558900E-01	5.4324523558900E-01	5.4324523558900E-01
5.4349257963820E-01	5.4349257963820E-01	5.4349257963820E-01
5.4373922595996E-01	5.4373922595996E-01	5.4373922595996E-01
5.4398517847962E-01	5.4398517847962E-01	5.4398517847962E-01
5.4423044108948E-01	5.4423044108948E-01	5.4423044108948E-01
5.4447501764918E-01	5.4447501764918E-01	5.4447501764918E-01
5.4471891198608E-01	5.4471891198608E-01	5.4471891198608E-01
5.4496212789557E-01	5.4496212789557E-01	5.4496212789557E-01
5.4520466914148E-01	5.4520466914148E-01	5.4520466914148E-01
5.4544653945639E-01	5.4544653945639E-01	5.4544653945639E-01
5.4568774254200E-01	5.4568774254200E-01	5.4568774254200E-01
5.4592828206945E-01	5.4592828206945E-01	5.4592828206945E-01
5.4616816167968E-01	5.4616816167968E-01	5.4616816167968E-01
5.4640738498372E-01	5.4640738498372E-01	5.4640738498372E-01
5.4664595556306E-01	5.4664595556306E-01	5.4664595556306E-01
5.4688387696996E-01	5.4688387696996E-01	5.4688387696996E-01
5.4712115272774E-01	5.4712115272774E-01	5.4712115272774E-01
5.4735778633113E-01	5.4735778633113E-01	5.4735778633113E-01
5.4759378124655E-01	5.4759378124655E-01	5.4759378124655E-01
5.4782914091244E-01	5.4782914091244E-01	5.4782914091244E-01
5.4806386873955E-01	5.4806386873955E-01	5.4806386873955E-01
5.4829796811121E-01	5.4829796811121E-01	5.4829796811121E-01
5.4853144238367E-01	5.4853144238367E-01	5.4853144238367E-01
5.4876429488636E-01	5.4876429488636E-01	5.4876429488636E-01
5.4899652892218E-01	5.4899652892218E-01	5.4899652892218E-01
5.4922814776778E-01	5.4922814776778E-01	5.4922814776778E-01
5.4945915467384E-01	5.4945915467384E-01	5.4945915467384E-01
5.4968955286535E-01	5.4968955286535E-01	5.4968955286535E-01
5.4991934554185E-01	5.4991934554185E-01	5.4991934554185E-01
5.5014853587776E-01	5.5014853587776E-01	5.5014853587776E-01
5.5037712702256E-01	5.5037712702256E-01	5.5037712702256E-01
5.5060512210112E-01	5.5060512210112E-01	5.5060512210112E-01
5.5083252421391E-01	5.5083252421391E-01	5.5083252421391E-01
5.5105933643729E-01	5.5105933643729E-01	5.5105933643729E-01
5.5128556182374E-01	5.5128556182374E-01	5.5128556182374E-01
5.5151120340208E-01	5.5151120340208E-01	5.5151120340208E-01
5.5173626417779E-01	5.5173626417779E-01	5.5173626417779E-01
5.5196074713314E-01	5.5196074713314E-01	5.5196074713314E-01
5.5218465522755E-01	5.5218465522755E-01	5.5218465522755E-01
5.5240799139773E-01	5.5240799139773E-01	5.5240799139773E-01
5.5263075855793E-01	5.5263075855793E-01	5.5263075855793E-01
5.5285295960022E-01	5.5285295960022E-01	5.5285295960022E-01
5.5307459739465E-01	5.5307459739465E-01	5.5307459739465E-01
5.5329567478951E-01	5.5329567478951E-01	5.5329567478951E-01
5.5351619461153E-01	5.5351619461153E-01	5.5351619461153E-01
