Addons/Fimic/Filmic Resolve - Very Low Contrast.cube
# Filmic Very Low Contrast		
LUT_1D_SIZE 4096		
LUT_1D_INPUT_RANGE 0.000000000 1.000000000		
0.0000000000000E+00	0.0000000000000E+00	0.0000000000000E+00
5.9973202403113E-05	5.9973202403113E-05	5.9973202403113E-05
1.2000306906271E-04	1.2000306906271E-04	1.2000306906271E-04
1.8008965102724E-04	1.8008965102724E-04	1.8008965102724E-04
2.4023299938559E-04	2.4023299938559E-04	2.4023299938559E-04
3.0043316526705E-04	3.0043316526705E-04	3.0043316526705E-04
3.6069019984138E-04	3.6069019984138E-04	3.6069019984138E-04
4.2100415431882E-04	4.2100415431882E-04	4.2100415431882E-04
4.8137507995013E-04	4.8137507995013E-04	4.8137507995013E-04
5.4180302802653E-04	5.4180302802653E-04	5.4180302802653E-04
6.0228804987980E-04	6.0228804987980E-04	6.0228804987980E-04
6.6283019688233E-04	6.6283019688233E-04	6.6283019688233E-04
7.2342952044696E-04	7.2342952044696E-04	7.2342952044696E-04
7.8408607202724E-04	7.8408607202724E-04	7.8408607202724E-04
8.4479990311727E-04	8.4479990311727E-04	8.4479990311727E-04
9.0557106525180E-04	9.0557106525180E-04	9.0557106525180E-04
9.6639961000620E-04	9.6639961000620E-04	9.6639961000620E-04
1.0272855889965E-03	1.0272855889965E-03	1.0272855889965E-03
1.0882290538796E-03	1.0882290538796E-03	1.0882290538796E-03
1.1492300563527E-03	1.1492300563527E-03	1.1492300563527E-03
1.2102886481541E-03	1.2102886481541E-03	1.2102886481541E-03
1.2714048810628E-03	1.2714048810628E-03	1.2714048810628E-03
1.3325788068983E-03	1.3325788068983E-03	1.3325788068983E-03
1.3938104775212E-03	1.3938104775212E-03	1.3938104775212E-03
1.4550999448326E-03	1.4550999448326E-03	1.4550999448326E-03
1.5164472607748E-03	1.5164472607748E-03	1.5164472607748E-03
1.5778524773305E-03	1.5778524773305E-03	1.5778524773305E-03
1.6393156465236E-03	1.6393156465236E-03	1.6393156465236E-03
1.7008368204186E-03	1.7008368204186E-03	1.7008368204186E-03
1.7624160511211E-03	1.7624160511211E-03	1.7624160511211E-03
1.8240533907776E-03	1.8240533907776E-03	1.8240533907776E-03
1.8857488915754E-03	1.8857488915754E-03	1.8857488915754E-03
1.9475026057429E-03	1.9475026057429E-03	1.9475026057429E-03
2.0093145855492E-03	2.0093145855492E-03	2.0093145855492E-03
2.0711848833048E-03	2.0711848833048E-03	2.0711848833048E-03
2.1331135513608E-03	2.1331135513608E-03	2.1331135513608E-03
2.1951006421096E-03	2.1951006421096E-03	2.1951006421096E-03
2.2571462079845E-03	2.2571462079845E-03	2.2571462079845E-03
2.3192503014598E-03	2.3192503014598E-03	2.3192503014598E-03
2.3814129750512E-03	2.3814129750512E-03	2.3814129750512E-03
2.4436342813150E-03	2.4436342813150E-03	2.4436342813150E-03
2.5059142728491E-03	2.5059142728491E-03	2.5059142728491E-03
2.5682530022922E-03	2.5682530022922E-03	2.5682530022922E-03
2.6306505223243E-03	2.6306505223243E-03	2.6306505223243E-03
2.6931068856665E-03	2.6931068856665E-03	2.6931068856665E-03
2.7556221450811E-03	2.7556221450811E-03	2.7556221450811E-03
2.8181963533717E-03	2.8181963533717E-03	2.8181963533717E-03
2.8808295633830E-03	2.8808295633830E-03	2.8808295633830E-03
2.9435218280009E-03	2.9435218280009E-03	2.9435218280009E-03
3.0062732001529E-03	3.0062732001529E-03	3.0062732001529E-03
3.0690837328073E-03	3.0690837328073E-03	3.0690837328073E-03
3.1319534789740E-03	3.1319534789740E-03	3.1319534789740E-03
3.1948824917040E-03	3.1948824917040E-03	3.1948824917040E-03
3.2578708240900E-03	3.2578708240900E-03	3.2578708240900E-03
3.3209185292657E-03	3.3209185292657E-03	3.3209185292657E-03
3.3840256604063E-03	3.3840256604063E-03	3.3840256604063E-03
3.4471922707282E-03	3.4471922707282E-03	3.4471922707282E-03
3.5104184134897E-03	3.5104184134897E-03	3.5104184134897E-03
3.5737041419898E-03	3.5737041419898E-03	3.5737041419898E-03
3.6370495095697E-03	3.6370495095697E-03	3.6370495095697E-03
3.7004545696114E-03	3.7004545696114E-03	3.7004545696114E-03
3.7639193755388E-03	3.7639193755388E-03	3.7639193755388E-03
3.8274439808172E-03	3.8274439808172E-03	3.8274439808172E-03
3.8910284389532E-03	3.8910284389532E-03	3.8910284389532E-03
3.9546728034951E-03	3.9546728034951E-03	3.9546728034951E-03
4.0183771280329E-03	4.0183771280329E-03	4.0183771280329E-03
4.0821414661979E-03	4.0821414661979E-03	4.0821414661979E-03
4.1459658716630E-03	4.1459658716630E-03	4.1459658716630E-03
4.2098503981429E-03	4.2098503981429E-03	4.2098503981429E-03
4.2737950993937E-03	4.2737950993937E-03	4.2737950993937E-03
4.3378000292132E-03	4.3378000292132E-03	4.3378000292132E-03
4.4018652414409E-03	4.4018652414409E-03	4.4018652414409E-03
4.4659907899580E-03	4.4659907899580E-03	4.4659907899580E-03
4.5301767286872E-03	4.5301767286872E-03	4.5301767286872E-03
4.5944231115931E-03	4.5944231115931E-03	4.5944231115931E-03
4.6587299926820E-03	4.6587299926820E-03	4.6587299926820E-03
4.7230974260017E-03	4.7230974260017E-03	4.7230974260017E-03
4.7875254656421E-03	4.7875254656421E-03	4.7875254656421E-03
4.8520141657346E-03	4.8520141657346E-03	4.8520141657346E-03
4.9165635804526E-03	4.9165635804526E-03	4.9165635804526E-03
4.9811737640110E-03	4.9811737640110E-03	4.9811737640110E-03
5.0458447706670E-03	5.0458447706670E-03	5.0458447706670E-03
5.1105766547191E-03	5.1105766547191E-03	5.1105766547191E-03
5.1753694705080E-03	5.1753694705080E-03	5.1753694705080E-03
5.2402232724162E-03	5.2402232724162E-03	5.2402232724162E-03
5.3051381148681E-03	5.3051381148681E-03	5.3051381148681E-03
5.3701140523299E-03	5.3701140523299E-03	5.3701140523299E-03
5.4351511393100E-03	5.4351511393100E-03	5.4351511393100E-03
5.5002494303583E-03	5.5002494303583E-03	5.5002494303583E-03
5.5654089800672E-03	5.5654089800672E-03	5.5654089800672E-03
5.6306298430705E-03	5.6306298430705E-03	5.6306298430705E-03
5.6959120740444E-03	5.6959120740444E-03	5.6959120740444E-03
5.7612557277071E-03	5.7612557277071E-03	5.7612557277071E-03
5.8266608588185E-03	5.8266608588185E-03	5.8266608588185E-03
5.8921275221809E-03	5.8921275221809E-03	5.8921275221809E-03
5.9576557726385E-03	5.9576557726385E-03	5.9576557726385E-03
6.0232456650775E-03	6.0232456650775E-03	6.0232456650775E-03
6.0888972544263E-03	6.0888972544263E-03	6.0888972544263E-03
6.1546105956555E-03	6.1546105956555E-03	6.1546105956555E-03
6.2203857437777E-03	6.2203857437777E-03	6.2203857437777E-03
6.2862227538475E-03	6.2862227538475E-03	6.2862227538475E-03
6.3521216809619E-03	6.3521216809619E-03	6.3521216809619E-03
6.4180825802601E-03	6.4180825802601E-03	6.4180825802601E-03
6.4841055069232E-03	6.4841055069232E-03	6.4841055069232E-03
6.5501905161748E-03	6.5501905161748E-03	6.5501905161748E-03
6.6163376632805E-03	6.6163376632805E-03	6.6163376632805E-03
6.6825470035484E-03	6.6825470035484E-03	6.6825470035484E-03
6.7488185923286E-03	6.7488185923286E-03	6.7488185923286E-03
6.8151524850137E-03	6.8151524850137E-03	6.8151524850137E-03
6.8815487370383E-03	6.8815487370383E-03	6.8815487370383E-03
6.9480074038796E-03	6.9480074038796E-03	6.9480074038796E-03
7.0145285410569E-03	7.0145285410569E-03	7.0145285410569E-03
7.0811122041319E-03	7.0811122041319E-03	7.0811122041319E-03
7.1477584487089E-03	7.1477584487089E-03	7.1477584487089E-03
7.2144673304341E-03	7.2144673304341E-03	7.2144673304341E-03
7.2812389049965E-03	7.2812389049965E-03	7.2812389049965E-03
7.3480732281273E-03	7.3480732281273E-03	7.3480732281273E-03
7.4149703556001E-03	7.4149703556001E-03	7.4149703556001E-03
7.4819303432310E-03	7.4819303432310E-03	7.4819303432310E-03
7.5489532468785E-03	7.5489532468785E-03	7.5489532468785E-03
7.6160391224437E-03	7.6160391224437E-03	7.6160391224437E-03
7.6831880258701E-03	7.6831880258701E-03	7.6831880258701E-03
7.7504000131435E-03	7.7504000131435E-03	7.7504000131435E-03
7.8176751402925E-03	7.8176751402925E-03	7.8176751402925E-03
7.8850134633882E-03	7.8850134633882E-03	7.8850134633882E-03
7.9524150385439E-03	7.9524150385439E-03	7.9524150385439E-03
8.0198799219160E-03	8.0198799219160E-03	8.0198799219160E-03
8.0874081697030E-03	8.0874081697030E-03	8.0874081697030E-03
8.1549998381462E-03	8.1549998381462E-03	8.1549998381462E-03
8.2226549835295E-03	8.2226549835295E-03	8.2226549835295E-03
8.2903736621794E-03	8.2903736621794E-03	8.2903736621794E-03
8.3581559304651E-03	8.3581559304651E-03	8.3581559304651E-03
8.4260018447983E-03	8.4260018447983E-03	8.4260018447983E-03
8.4939114616334E-03	8.4939114616334E-03	8.4939114616334E-03
8.5618848374677E-03	8.5618848374677E-03	8.5618848374677E-03
8.6299220288409E-03	8.6299220288409E-03	8.6299220288409E-03
8.6980230923356E-03	8.6980230923356E-03	8.6980230923356E-03
8.7661880845770E-03	8.7661880845770E-03	8.7661880845770E-03
8.8344170622331E-03	8.8344170622331E-03	8.8344170622331E-03
8.9027100820148E-03	8.9027100820148E-03	8.9027100820148E-03
8.9710672006755E-03	8.9710672006755E-03	8.9710672006755E-03
9.0394884750116E-03	9.0394884750116E-03	9.0394884750116E-03
9.1079739618622E-03	9.1079739618622E-03	9.1079739618622E-03
9.1765237181092E-03	9.1765237181092E-03	9.1765237181092E-03
9.2451378006774E-03	9.2451378006774E-03	9.2451378006774E-03
9.3138162665344E-03	9.3138162665344E-03	9.3138162665344E-03
9.3825591726908E-03	9.3825591726908E-03	9.3825591726908E-03
9.4513665761998E-03	9.4513665761998E-03	9.4513665761998E-03
9.5202385341577E-03	9.5202385341577E-03	9.5202385341577E-03
9.5891751037037E-03	9.5891751037037E-03	9.5891751037037E-03
9.6581763420198E-03	9.6581763420198E-03	9.6581763420198E-03
9.7272423063310E-03	9.7272423063310E-03	9.7272423063310E-03
9.7963730539053E-03	9.7963730539053E-03	9.7963730539053E-03
9.8655686420537E-03	9.8655686420537E-03	9.8655686420537E-03
9.9348291281299E-03	9.9348291281299E-03	9.9348291281299E-03
1.0004154569531E-02	1.0004154569531E-02	1.0004154569531E-02
1.0073545023697E-02	1.0073545023697E-02	1.0073545023697E-02
1.0143000548110E-02	1.0143000548110E-02	1.0143000548110E-02
1.0212521200297E-02	1.0212521200297E-02	1.0212521200297E-02
1.0282107037826E-02	1.0282107037826E-02	1.0282107037826E-02
1.0351758118310E-02	1.0351758118310E-02	1.0351758118310E-02
1.0421474499403E-02	1.0421474499403E-02	1.0421474499403E-02
1.0491256238805E-02	1.0491256238805E-02	1.0491256238805E-02
1.0561103394256E-02	1.0561103394256E-02	1.0561103394256E-02
1.0631016023541E-02	1.0631016023541E-02	1.0631016023541E-02
1.0700994184487E-02	1.0700994184487E-02	1.0700994184487E-02
1.0771037934965E-02	1.0771037934965E-02	1.0771037934965E-02
1.0841147332889E-02	1.0841147332889E-02	1.0841147332889E-02
1.0911322436216E-02	1.0911322436216E-02	1.0911322436216E-02
1.0981563302946E-02	1.0981563302946E-02	1.0981563302946E-02
1.1051869991123E-02	1.1051869991123E-02	1.1051869991123E-02
1.1122242558834E-02	1.1122242558834E-02	1.1122242558834E-02
1.1192681064208E-02	1.1192681064208E-02	1.1192681064208E-02
1.1263185565418E-02	1.1263185565418E-02	1.1263185565418E-02
1.1333756120682E-02	1.1333756120682E-02	1.1333756120682E-02
1.1404392788258E-02	1.1404392788258E-02	1.1404392788258E-02
1.1475095626449E-02	1.1475095626449E-02	1.1475095626449E-02
1.1545864693603E-02	1.1545864693603E-02	1.1545864693603E-02
1.1616700048108E-02	1.1616700048108E-02	1.1616700048108E-02
1.1687601748397E-02	1.1687601748397E-02	1.1687601748397E-02
1.1758569852947E-02	1.1758569852947E-02	1.1758569852947E-02
1.1829604420276E-02	1.1829604420276E-02	1.1829604420276E-02
1.1900705508950E-02	1.1900705508950E-02	1.1900705508950E-02
1.1971873177572E-02	1.1971873177572E-02	1.1971873177572E-02
1.2043107484794E-02	1.2043107484794E-02	1.2043107484794E-02
1.2114408489308E-02	1.2114408489308E-02	1.2114408489308E-02
1.2185776249850E-02	1.2185776249850E-02	1.2185776249850E-02
1.2257210825202E-02	1.2257210825202E-02	1.2257210825202E-02
1.2328712274186E-02	1.2328712274186E-02	1.2328712274186E-02
1.2400280655669E-02	1.2400280655669E-02	1.2400280655669E-02
1.2471916028561E-02	1.2471916028561E-02	1.2471916028561E-02
1.2543618451817E-02	1.2543618451817E-02	1.2543618451817E-02
1.2615387984433E-02	1.2615387984433E-02	1.2615387984433E-02
1.2687224685451E-02	1.2687224685451E-02	1.2687224685451E-02
1.2759128613954E-02	1.2759128613954E-02	1.2759128613954E-02
1.2831099829071E-02	1.2831099829071E-02	1.2831099829071E-02
1.2903138389973E-02	1.2903138389973E-02	1.2903138389973E-02
1.2975244355875E-02	1.2975244355875E-02	1.2975244355875E-02
1.3047417786035E-02	1.3047417786035E-02	1.3047417786035E-02
1.3119658739757E-02	1.3119658739757E-02	1.3119658739757E-02
1.3191967276384E-02	1.3191967276384E-02	1.3191967276384E-02
1.3264343455307E-02	1.3264343455307E-02	1.3264343455307E-02
1.3336787335959E-02	1.3336787335959E-02	1.3336787335959E-02
1.3409298977816E-02	1.3409298977816E-02	1.3409298977816E-02
1.3481878440399E-02	1.3481878440399E-02	1.3481878440399E-02
1.3554525783271E-02	1.3554525783271E-02	1.3554525783271E-02
1.3627241066040E-02	1.3627241066040E-02	1.3627241066040E-02
1.3700024348356E-02	1.3700024348356E-02	1.3700024348356E-02
1.3772875689916E-02	1.3772875689916E-02	1.3772875689916E-02
1.3845795150457E-02	1.3845795150457E-02	1.3845795150457E-02
1.3918782789763E-02	1.3918782789763E-02	1.3918782789763E-02
1.3991838667658E-02	1.3991838667658E-02	1.3991838667658E-02
1.4064962844013E-02	1.4064962844013E-02	1.4064962844013E-02
1.4138155378741E-02	1.4138155378741E-02	1.4138155378741E-02
1.4211416331800E-02	1.4211416331800E-02	1.4211416331800E-02
1.4284745763190E-02	1.4284745763190E-02	1.4284745763190E-02
1.4358143732957E-02	1.4358143732957E-02	1.4358143732957E-02
1.4431610301190E-02	1.4431610301190E-02	1.4431610301190E-02
1.4505145528019E-02	1.4505145528019E-02	1.4505145528019E-02
1.4578749473623E-02	1.4578749473623E-02	1.4578749473623E-02
1.4652422198221E-02	1.4652422198221E-02	1.4652422198221E-02
1.4726163762077E-02	1.4726163762077E-02	1.4726163762077E-02
1.4799974225499E-02	1.4799974225499E-02	1.4799974225499E-02
1.4873853648838E-02	1.4873853648838E-02	1.4873853648838E-02
1.4947802092490E-02	1.4947802092490E-02	1.4947802092490E-02
1.5021819616895E-02	1.5021819616895E-02	1.5021819616895E-02
1.5095906282535E-02	1.5095906282535E-02	1.5095906282535E-02
1.5170062149939E-02	1.5170062149939E-02	1.5170062149939E-02
1.5244287279676E-02	1.5244287279676E-02	1.5244287279676E-02
1.5318581732363E-02	1.5318581732363E-02	1.5318581732363E-02
1.5392945568659E-02	1.5392945568659E-02	1.5392945568659E-02
1.5467378849265E-02	1.5467378849265E-02	1.5467378849265E-02
1.5541881634930E-02	1.5541881634930E-02	1.5541881634930E-02
1.5616453986444E-02	1.5616453986444E-02	1.5616453986444E-02
1.5691095964643E-02	1.5691095964643E-02	1.5691095964643E-02
1.5765807630404E-02	1.5765807630404E-02	1.5765807630404E-02
1.5840589044651E-02	1.5840589044651E-02	1.5840589044651E-02
1.5915440268351E-02	1.5915440268351E-02	1.5915440268351E-02
1.5990361362514E-02	1.5990361362514E-02	1.5990361362514E-02
1.6065352388196E-02	1.6065352388196E-02	1.6065352388196E-02
1.6140413406496E-02	1.6140413406496E-02	1.6140413406496E-02
1.6215544478557E-02	1.6215544478557E-02	1.6215544478557E-02
1.6290745665566E-02	1.6290745665566E-02	1.6290745665566E-02
1.6366017028754E-02	1.6366017028754E-02	1.6366017028754E-02
1.6441358629396E-02	1.6441358629396E-02	1.6441358629396E-02
1.6516770528812E-02	1.6516770528812E-02	1.6516770528812E-02
1.6592252788366E-02	1.6592252788366E-02	1.6592252788366E-02
1.6667805469465E-02	1.6667805469465E-02	1.6667805469465E-02
1.6743428633560E-02	1.6743428633560E-02	1.6743428633560E-02
1.6819122342148E-02	1.6819122342148E-02	1.6819122342148E-02
1.6894886656769E-02	1.6894886656769E-02	1.6894886656769E-02
1.6970721639007E-02	1.6970721639007E-02	1.6970721639007E-02
1.7046627350490E-02	1.7046627350490E-02	1.7046627350490E-02
1.7122603852891E-02	1.7122603852891E-02	1.7122603852891E-02
1.7198651207926E-02	1.7198651207926E-02	1.7198651207926E-02
1.7274769477357E-02	1.7274769477357E-02	1.7274769477357E-02
1.7350958722988E-02	1.7350958722988E-02	1.7350958722988E-02
1.7427219006669E-02	1.7427219006669E-02	1.7427219006669E-02
1.7503550390293E-02	1.7503550390293E-02	1.7503550390293E-02
1.7579952935799E-02	1.7579952935799E-02	1.7579952935799E-02
1.7656426705167E-02	1.7656426705167E-02	1.7656426705167E-02
1.7732971760425E-02	1.7732971760425E-02	1.7732971760425E-02
1.7809588163643E-02	1.7809588163643E-02	1.7809588163643E-02
1.7886275976936E-02	1.7886275976936E-02	1.7886275976936E-02
1.7963035262462E-02	1.7963035262462E-02	1.7963035262462E-02
1.8039866082426E-02	1.8039866082426E-02	1.8039866082426E-02
1.8116768499074E-02	1.8116768499074E-02	1.8116768499074E-02
1.8193742574699E-02	1.8193742574699E-02	1.8193742574699E-02
1.8270788371636E-02	1.8270788371636E-02	1.8270788371636E-02
1.8347905952268E-02	1.8347905952268E-02	1.8347905952268E-02
1.8425095379017E-02	1.8425095379017E-02	1.8425095379017E-02
1.8502356714354E-02	1.8502356714354E-02	1.8502356714354E-02
1.8579690020793E-02	1.8579690020793E-02	1.8579690020793E-02
1.8657095360890E-02	1.8657095360890E-02	1.8657095360890E-02
1.8734572797249E-02	1.8734572797249E-02	1.8734572797249E-02
1.8812122392515E-02	1.8812122392515E-02	1.8812122392515E-02
1.8889744209381E-02	1.8889744209381E-02	1.8889744209381E-02
1.8967438310581E-02	1.8967438310581E-02	1.8967438310581E-02
1.9045204758896E-02	1.9045204758896E-02	1.9045204758896E-02
1.9123043617149E-02	1.9123043617149E-02	1.9123043617149E-02
1.9200954948208E-02	1.9200954948208E-02	1.9200954948208E-02
1.9278938814988E-02	1.9278938814988E-02	1.9278938814988E-02
1.9356995280446E-02	1.9356995280446E-02	1.9356995280446E-02
1.9435124407583E-02	1.9435124407583E-02	1.9435124407583E-02
1.9513326259446E-02	1.9513326259446E-02	1.9513326259446E-02
1.9591600899125E-02	1.9591600899125E-02	1.9591600899125E-02
1.9669948389756E-02	1.9669948389756E-02	1.9669948389756E-02
1.9748368794518E-02	1.9748368794518E-02	1.9748368794518E-02
1.9826862176636E-02	1.9826862176636E-02	1.9826862176636E-02
1.9905428599378E-02	1.9905428599378E-02	1.9905428599378E-02
1.9984068126058E-02	1.9984068126058E-02	1.9984068126058E-02
2.0062780820032E-02	2.0062780820032E-02	2.0062780820032E-02
2.0141566744704E-02	2.0141566744704E-02	2.0141566744704E-02
2.0220425963519E-02	2.0220425963519E-02	2.0220425963519E-02
2.0299358539969E-02	2.0299358539969E-02	2.0299358539969E-02
2.0378364537589E-02	2.0378364537589E-02	2.0378364537589E-02
2.0457444019960E-02	2.0457444019960E-02	2.0457444019960E-02
2.0536597050706E-02	2.0536597050706E-02	2.0536597050706E-02
2.0615823693497E-02	2.0615823693497E-02	2.0615823693497E-02
2.0695124012046E-02	2.0695124012046E-02	2.0695124012046E-02
2.0774498070112E-02	2.0774498070112E-02	2.0774498070112E-02
2.0853945931498E-02	2.0853945931498E-02	2.0853945931498E-02
2.0933467660050E-02	2.0933467660050E-02	2.0933467660050E-02
2.1013063319662E-02	2.1013063319662E-02	2.1013063319662E-02
2.1092732974269E-02	2.1092732974269E-02	2.1092732974269E-02
2.1172476687853E-02	2.1172476687853E-02	2.1172476687853E-02
2.1252294524440E-02	2.1252294524440E-02	2.1252294524440E-02
2.1332186548100E-02	2.1332186548100E-02	2.1332186548100E-02
2.1412152822948E-02	2.1412152822948E-02	2.1412152822948E-02
2.1492193413143E-02	2.1492193413143E-02	2.1492193413143E-02
2.1572308382891E-02	2.1572308382891E-02	2.1572308382891E-02
2.1652497796439E-02	2.1652497796439E-02	2.1652497796439E-02
2.1732761718081E-02	2.1732761718081E-02	2.1732761718081E-02
2.1813100212156E-02	2.1813100212156E-02	2.1813100212156E-02
2.1893513343045E-02	2.1893513343045E-02	2.1893513343045E-02
2.1974001175177E-02	2.1974001175177E-02	2.1974001175177E-02
2.2054563773024E-02	2.2054563773024E-02	2.2054563773024E-02
2.2135201201101E-02	2.2135201201101E-02	2.2135201201101E-02
2.2215913523971E-02	2.2215913523971E-02	2.2215913523971E-02
2.2296700806239E-02	2.2296700806239E-02	2.2296700806239E-02
2.2377563112556E-02	2.2377563112556E-02	2.2377563112556E-02
2.2458500507618E-02	2.2458500507618E-02	2.2458500507618E-02
2.2539513056164E-02	2.2539513056164E-02	2.2539513056164E-02
2.2620600822980E-02	2.2620600822980E-02	2.2620600822980E-02
2.2701763872893E-02	2.2701763872893E-02	2.2701763872893E-02
2.2783002270780E-02	2.2783002270780E-02	2.2783002270780E-02
2.2864316081558E-02	2.2864316081558E-02	2.2864316081558E-02
2.2945705370191E-02	2.2945705370191E-02	2.2945705370191E-02
2.3027170201687E-02	2.3027170201687E-02	2.3027170201687E-02
2.3108710641099E-02	2.3108710641099E-02	2.3108710641099E-02
2.3190326753525E-02	2.3190326753525E-02	2.3190326753525E-02
2.3272018604107E-02	2.3272018604107E-02	2.3272018604107E-02
2.3353786258032E-02	2.3353786258032E-02	2.3353786258032E-02
2.3435629780532E-02	2.3435629780532E-02	2.3435629780532E-02
2.3517549236884E-02	2.3517549236884E-02	2.3517549236884E-02
2.3599544692409E-02	2.3599544692409E-02	2.3599544692409E-02
2.3681616212472E-02	2.3681616212472E-02	2.3681616212472E-02
2.3763763862485E-02	2.3763763862485E-02	2.3763763862485E-02
2.3845987707903E-02	2.3845987707903E-02	2.3845987707903E-02
2.3928287814227E-02	2.3928287814227E-02	2.3928287814227E-02
2.4010664247002E-02	2.4010664247002E-02	2.4010664247002E-02
2.4093117071816E-02	2.4093117071816E-02	2.4093117071816E-02
2.4175646354306E-02	2.4175646354306E-02	2.4175646354306E-02
2.4258252160150E-02	2.4258252160150E-02	2.4258252160150E-02
2.4340934555072E-02	2.4340934555072E-02	2.4340934555072E-02
2.4423693604842E-02	2.4423693604842E-02	2.4423693604842E-02
2.4506529375272E-02	2.4506529375272E-02	2.4506529375272E-02
2.4589441932223E-02	2.4589441932223E-02	2.4589441932223E-02
2.4672431341595E-02	2.4672431341595E-02	2.4672431341595E-02
2.4755497669339E-02	2.4755497669339E-02	2.4755497669339E-02
2.4838640981446E-02	2.4838640981446E-02	2.4838640981446E-02
2.4921861343954E-02	2.4921861343954E-02	2.4921861343954E-02
2.5005158822946E-02	2.5005158822946E-02	2.5005158822946E-02
2.5088533484548E-02	2.5088533484548E-02	2.5088533484548E-02
2.5171985394934E-02	2.5171985394934E-02	2.5171985394934E-02
2.5255514620319E-02	2.5255514620319E-02	2.5255514620319E-02
2.5339121226965E-02	2.5339121226965E-02	2.5339121226965E-02
2.5422805281179E-02	2.5422805281179E-02	2.5422805281179E-02
2.5506566849312E-02	2.5506566849312E-02	2.5506566849312E-02
2.5590405997761E-02	2.5590405997761E-02	2.5590405997761E-02
2.5674322792965E-02	2.5674322792965E-02	2.5674322792965E-02
2.5758317301410E-02	2.5758317301410E-02	2.5758317301410E-02
2.5842389589629E-02	2.5842389589629E-02	2.5842389589629E-02
2.5926539724194E-02	2.5926539724194E-02	2.5926539724194E-02
2.6010767771727E-02	2.6010767771727E-02	2.6010767771727E-02
2.6095073798894E-02	2.6095073798894E-02	2.6095073798894E-02
2.6179457872402E-02	2.6179457872402E-02	2.6179457872402E-02
2.6263920059008E-02	2.6263920059008E-02	2.6263920059008E-02
2.6348460425511E-02	2.6348460425511E-02	2.6348460425511E-02
2.6433079038755E-02	2.6433079038755E-02	2.6433079038755E-02
2.6517775965629E-02	2.6517775965629E-02	2.6517775965629E-02
2.6602551273067E-02	2.6602551273067E-02	2.6602551273067E-02
2.6687405028048E-02	2.6687405028048E-02	2.6687405028048E-02
2.6772337297597E-02	2.6772337297597E-02	2.6772337297597E-02
2.6857348148780E-02	2.6857348148780E-02	2.6857348148780E-02
2.6942437648712E-02	2.6942437648712E-02	2.6942437648712E-02
2.7027605864551E-02	2.7027605864551E-02	2.7027605864551E-02
2.7112852863500E-02	2.7112852863500E-02	2.7112852863500E-02
2.7198178712807E-02	2.7198178712807E-02	2.7198178712807E-02
2.7283583479764E-02	2.7283583479764E-02	2.7283583479764E-02
2.7369067231710E-02	2.7369067231710E-02	2.7369067231710E-02
2.7454630036025E-02	2.7454630036025E-02	2.7454630036025E-02
2.7540271960139E-02	2.7540271960139E-02	2.7540271960139E-02
2.7625993071523E-02	2.7625993071523E-02	2.7625993071523E-02
2.7711793437693E-02	2.7711793437693E-02	2.7711793437693E-02
2.7797673126212E-02	2.7797673126212E-02	2.7797673126212E-02
2.7883632204686E-02	2.7883632204686E-02	2.7883632204686E-02
2.7969670740767E-02	2.7969670740767E-02	2.7969670740767E-02
2.8055788802152E-02	2.8055788802152E-02	2.8055788802152E-02
2.8141986456580E-02	2.8141986456580E-02	2.8141986456580E-02
2.8228263771839E-02	2.8228263771839E-02	2.8228263771839E-02
2.8314620815759E-02	2.8314620815759E-02	2.8314620815759E-02
2.8401057656216E-02	2.8401057656216E-02	2.8401057656216E-02
2.8487574361130E-02	2.8487574361130E-02	2.8487574361130E-02
2.8574170998467E-02	2.8574170998467E-02	2.8574170998467E-02
2.8660847636237E-02	2.8660847636237E-02	2.8660847636237E-02
2.8747604342496E-02	2.8747604342496E-02	2.8747604342496E-02
2.8834441185342E-02	2.8834441185342E-02	2.8834441185342E-02
